!!!!SEGMENT: pl-cz--iii-196--005_elsner-jozef--missa-a-op-81-benedictus.krn
!!!cenid: 18xx:257
!!!COM: Elsner, Józef
!!!COM-rismid: pe30000957
!!!CDT: 1769/06/01-1854/04/18
!!!CNT: Polish
!!!OPR: Missa A op. 81
!!!OTL: Benedictus
!!!OMV: 005
!!!PDT: 1850
!!!AGN: Sacred; Mass
!!!SMS-siglum: PL-CZ
!!!SMS-shelfmark: III-196
!!!SMS-shelfwork: 001-005 M
!!!NIFC-rismid:
!!!URL-scan: http://repozytorium.nifc.pl/skany/pl-cz-nut--iii-196
!!!ONB-nifc: UWAGA: części Mszy: Kyrie, Gloria, Credo, Sanctus, Benedictus, Agnus. Dona
!!!AIN: 1 alto 2 cor 6 empty 2 fagot 2 flt 2 oboe 1 tenor 1 timpa 1 tromt 1 viola 2 violn 1 vox
!!!key:
**kern	**dynam	**kern	**dynam	**kern	**dynam	**kern	**dynam	**kern	**kern	**text	**dynam	**kern	**text	**kern	**kern	**kern	**kern	**kern	**kern	**dynam	**kern	**dynam	**kern	**dynam	**kern	**dynam	**kern	**dynam	**kern	**dynam	**kern	**dynam	**kern	**dynam	**kern	**kern	**dynam
*part22	*part22	*part21	*part21	*part20	*part20	*part19	*part19	*part18	*part17	*part17	*part17	*part16	*part16	*part15	*part14	*part13	*part12	*part11	*part10	*part10	*part9	*part9	*part8	*part8	*part7	*part7	*part6	*part6	*part5	*part5	*part4	*part4	*part3	*part3	*part2	*part1	*part1
*staff22	*	*staff21	*	*staff20	*	*staff19	*	*staff18	*staff17	*staff17	*	*staff16	*staff16	*staff15	*staff14	*staff13	*staff12	*staff11	*staff10	*	*staff9	*	*staff8	*	*staff7	*	*staff6	*	*staff5	*	*staff4	*	*staff3	*	*staff2	*staff1	*
*Iempty	*	*Iviola	*	*Ivioln	*	*Ivioln	*	*Iempty	*Itenor	*	*	*Ialto	*	*Ivox	*Itimpa	*Itromt	*Iempty	*Iempty	*Icor	*	*Icor	*	*Ifagot	*	*Ifagot	*	*Iempty	*	*Iempty	*	*Ioboe	*	*Ioboe	*	*Iflt	*Iflt	*
*I"Baſso	*	*I"Alto Viola	*	*I"Violino IIdo	*	*I"Violino 1mo	*	*I"Baſso	*I"Tenore	*	*	*I"Alto	*	*I"Canto	*I"Tympano	*I"Trombone Baſso	*I"Trompetto 2do in A	*I"Trompetto 1mo in A	*I"Corno 2do in D	*	*I"Corno 1mo in D	*	*I"Fagotto 2do	*	*I"Fagotto 1mo	*	*I"Clarnetto (II) in A	*	*I"Clarnetto 1mo in A	*	*I"Oboi 2do	*	*I"Oboi 1mo	*	*I"Flauto 2do	*I"Flauto 1mo	*
*I'B	*	*I'A-vla	*	*I'Vl II	*	*I'Vl I	*	*I'B	*I'T	*	*	*I'A	*	*I'C	*I'Timp	*I'B-trb	*I'Tr II in A	*I'Tr I in A	*I'Cor II in D	*	*I'Cor I in D	*	*I'Fag II	*	*I'Fag I	*	*I'Cl (II) in A	*	*I'Cl I in A	*	*I'Ob II	*	*I'Ob I	*	*I'Fl II	*I'Fl I	*
*clefF4	*	*clefC3	*	*clefG2	*	*clefG2	*	*clefF4	*clefC4	*	*	*clefC3	*	*clefC1	*clefF4	*clefF4	*clefG2	*clefG2	*clefG2	*	*clefG2	*	*clefF4	*	*clefF4	*	*clefG2	*	*clefG2	*	*clefG2	*	*clefG2	*	*clefG2	*clefG2	*
*	*	*	*	*	*	*	*	*	*	*	*	*	*	*	*	*	*ITrd2c3	*ITrd2c3	*ITrd6c10	*	*ITrd6c10	*	*	*	*	*	*ITrd2c3	*	*ITrd2c3	*	*	*	*	*	*	*	*
*k[f#c#]	*	*k[f#c#]	*	*k[f#c#]	*	*k[f#c#]	*	*k[f#c#]	*k[f#c#]	*	*	*k[f#c#]	*	*k[f#c#]	*k[f#c#]	*k[f#c#]	*k[f#c#g#]	*k[f#c#g#]	*k[f#c#]	*	*k[f#c#]	*	*k[f#c#]	*	*k[f#c#]	*	*k[f#c#]	*	*k[f#c#]	*	*k[f#c#]	*	*k[f#c#]	*	*k[f#c#]	*k[f#c#]	*
*D:	*	*D:	*	*D:	*	*D:	*	*D:	*D:	*	*	*D:	*	*D:	*D:	*D:	*D:	*D:	*D:	*	*D:	*	*D:	*	*D:	*	*D:	*	*D:	*	*D:	*	*D:	*	*D:	*D:	*
*M3/4	*	*M3/4	*	*M3/4	*	*M3/4	*	*M3/4	*M3/4	*	*	*M3/4	*	*M3/4	*M3/4	*M3/4	*M3/4	*M3/4	*M3/4	*	*M3/4	*	*M3/4	*	*M3/4	*	*M3/4	*	*M3/4	*	*M3/4	*	*M3/4	*	*M3/4	*M3/4	*
=1	=1	=1	=1	=1	=1	=1	=1	=1	=1	=1	=1	=1	=1	=1	=1	=1	=1	=1	=1	=1	=1	=1	=1	=1	=1	=1	=1	=1	=1	=1	=1	=1	=1	=1	=1	=1	=1
!	!	!	!	!	!	!	!	!	!LO:TX:a:i:t=3	!	!	!LO:TX:b:i:t=19.	!	!	!	!	!	!LO:TX:a:i:t=71.	!LO:TX:a:i:t=2	!	!LO:TX:b:i:t=2	!	!LO:TX:a:i:t=44.	!	!LO:TX:a:i:t=1.	!	!LO:TX:a:i:t=44	!	!LO:TX:a:i:t=44	!	!LO:TX:a:i:t=33.	!	!	!	!	!LO:TX:b:i:t=17	!
!LO:TX:a:i:t=Andantino	!	!LO:TX:a:i:t=Andante.	!	!LO:TX:a:i:t=Andantino	!	!LO:TX:a:i:t=Andantino.	!	!LO:TX:a:i:B:t=Benedictus Tacet.	!LO:TX:a:i:t=Andante	!	!	!LO:TX:a:i:t=Andante	!	!LO:TX:a:B:i:t=Benedictus Tacet.	!LO:TX:a:B:i:t=Benedictus Tacet.	!LO:TX:a:B:i:t=Benedictus Tacet.	!LO:TX:a:B:i:t=Benedictus Tacet.	!LO:TX:a:B:i:t=Tacet.	!LO:TX:a:i:t=Andante	!	!LO:TX:a:i:t=Andante	!	!LO:TX:a:i:t=Andante	!	!LO:TX:a:i:t=Andante	!	!LO:TX:a:i:t=Andante	!	!LO:TX:a:i:t=Andante	!	!LO:TX:a:i:t=Andante	!	!LO:TX:a:i:t=33.	!	!LO:TX:a:B:i:t=Benedictus Tacet.	!LO:TX:a:i:t=Andante	!
!	!	!	!	!	!	!	!	!	!	!	!	!	!	!LO:TX:a:i:t=Oſanna dal Segno	!LO:SIC:o=:v:t:złe wyświetlanie akolady	!	!	!	!	!	!	!	!	!	!	!	!	!	!	!	!	!	!	!	!LO:TX:a:i:t=Oſanna dal Segno	!	!
!	!	!	!	!	!LO:DY:b	!	!	!	!LO:N:vis=0	!	!	!LO:N:vis=00	!	!	!	!LO:TX:a:i:t=Segue Oſanna dal Segno	!LO:TX:a:i:t=Segue Oſanna dal Segno	!	!LO:N:vis=0	!	!LO:N:vis=0	!	!	!	!	!	!	!	!	!	!	!	!	!	!	!LO:N:vis=00	!
4r	.	4r	.	4r	p	4r	.	2.ryy	1.r	.	.	0.r	.	2.ryy	2.ryy	2.ryy	2.ryy	2.r	1.r	.	1.r	.	2.r	.	2.r	.	2.r	p	2.r	.	2.r	.	2.r	.	2.ryy	0.r	.
!	!LO:DY:b	!	!LO:DY:b	!	!	!	!	!	!	!	!	!	!	!	!	!	!	!	!	!	!	!	!	!	!	!	!	!	!	!	!	!	!	!	!	!	!
4r	p	4r	p	4r	.	4r	.	.	.	.	.	.	.	.	.	.	.	.	.	.	.	.	.	.	.	.	.	.	.	.	.	.	.	.	.	.	.
*4\right	*	*	*	*	*	*4\right	*	*	*	*	*	*	*	*	*	*	*	*	*	*	*	*	*	*	*	*	*	*	*	*	*	*	*	*	*	*	*
!	!	!	!	!	!	!	!LO:DY:b	!	!	!	!	!	!	!	!	!	!	!	!	!	!	!	!	!	!	!	!	!	!	!	!	!	!	!	!	!	!
4F#\	.	4F#/	.	4a/	.	4dd\	p	.	.	.	.	.	.	.	.	.	.	.	.	.	.	.	.	.	.	.	.	.	.	.	.	.	.	.	.	.	.
=2	=2	=2	=2	=2	=2	=2	=2	=2	=2	=2	=2	=2	=2	=2	=2	=2	=2	=2	=2	=2	=2	=2	=2	=2	=2	=2	=2	=2	=2	=2	=2	=2	=2	=2	=2	=2	=2
*	*	*	*	*^	*	*	*	*	*	*	*	*	*	*	*	*	*	*	*	*	*	*	*	*	*	*	*	*	*	*	*	*	*	*	*	*	*
*	*	*	*	*4\right	*	*	*	*	*	*	*	*	*	*	*	*	*	*	*	*	*	*	*	*	*	*	*	*	*	*	*	*	*	*	*	*	*	*
4G\	.	4G/	.	2a/	4e\	.	4cc#\	.	2.ryy	.	.	.	.	.	2.ryy	2.ryy	2.ryy	2.ryy	2.r	.	.	.	.	2.r	.	4r	.	2.r	.	2.r	.	2.r	.	2.r	.	2.ryy	.	.
4F#\	.	4F#/	.	.	4d\	.	4dd\	.	.	.	.	.	.	.	.	.	.	.	.	.	.	.	.	.	.	4r	.	.	.	.	.	.	.	.	.	.	.	.
*	*	*	*	*	*	*	*	*	*	*	*	*	*	*	*	*	*	*	*	*	*	*	*	*	*	*4\right	*	*	*	*	*	*	*	*	*	*	*	*
!	!	!	!	!	!	!	!	!	!	!	!	!	!	!	!	!	!	!	!	!	!	!	!	!	!	!LO:TX:a:i:t=Solo	!	!	!	!	!	!	!	!	!	!	!	!
4G\	.	4G/	.	4g/	4reyy	.	4b\	.	.	.	.	.	.	.	.	.	.	.	.	.	.	.	p	.	.	4g\	p	.	.	.	.	.	.	.	.	.	.	.
*	*	*	*	*v	*v	*	*	*	*	*	*	*	*	*	*	*	*	*	*	*	*	*	*	*	*	*	*	*	*	*	*	*	*	*	*	*	*	*
=3	=3	=3	=3	=3	=3	=3	=3	=3	=3	=3	=3	=3	=3	=3	=3	=3	=3	=3	=3	=3	=3	=3	=3	=3	=3	=3	=3	=3	=3	=3	=3	=3	=3	=3	=3	=3	=3
4A\	.	4A/	.	4f#/	.	4a\	.	2.ryy	2.r	.	.	.	.	2.ryy	2.ryy	2.ryy	2.ryy	2.r	4r	.	4r	.	2.r	.	(4.f#\	.	2.r	.	2.r	.	2.r	.	2.r	.	2.ryy	.	.
4r	.	4r	.	4r	.	4r	.	.	.	.	.	.	.	.	.	.	.	.	4r	.	4r	.	.	.	.	.	.	.	.	.	.	.	.	.	.	.	.
*	*	*	*	*	*	*	*	*	*	*	*	*	*	*	*	*	*	*	*	*	*4\right	*	*	*	*8\right	*	*	*	*	*	*	*	*	*	*	*	*
!	!	!	!	!	!	!	!	!	!	!	!	!	!	!	!	!	!	!	!	!	!	!	!	!	!LO:N:vis=4	!	!	!	!	!	!	!	!	!	!	!	!
.	.	.	.	.	.	.	.	.	.	.	.	.	.	.	.	.	.	.	.	.	.	.	.	.	8fn\	.	.	.	.	.	.	.	.	.	.	.	.
4AA/	.	4A/	.	4c#/ 4e/	.	4a/	.	.	.	.	.	.	.	.	.	.	.	.	4A/	.	4e\	.	.	.	8e\L	.	.	.	.	.	.	.	.	.	.	.	.
.	.	.	.	.	.	.	.	.	.	.	.	.	.	.	.	.	.	.	.	.	.	.	.	.	8c#\J	.	.	.	.	.	.	.	.	.	.	.	.
=4	=4	=4	=4	=4	=4	=4	=4	=4	=4	=4	=4	=4	=4	=4	=4	=4	=4	=4	=4	=4	=4	=4	=4	=4	=4	=4	=4	=4	=4	=4	=4	=4	=4	=4	=4	=4	=4
!	!	!	!	!	!	!	!	!	!LO:TX:a:i:rj:t=Solo	!	!	!	!	!	!	!	!	!	!	!	!	!	!	!	!	!	!	!	!	!	!	!	!	!	!	!	!
*2\right	*	*2\right	*	*	*	*	*	*	*4\right	*	*	*	*	*	*	*	*	*	*4\right	*	*	*	*	*	*	*	*	*	*	*	*	*	*	*	*	*	*
[2.D\	.	2.d^<\	.	4f#/	.	4a\	.	2.ryy	4A\	Be-	.	.	.	2.ryy	2.ryy	2.ryy	2.ryy	2.r	4d\	.	4f#\	.	2.r	.	4d\)	.	2.r	.	2.r	.	2.r	.	2.r	.	2.ryy	.	.
.	.	.	.	4g/	.	4b\	.	.	4B\	.	.	.	.	.	.	.	.	.	4r	.	4r	.	.	.	4r	.	.	.	.	.	.	.	.	.	.	.	.
*	*	*	*	*	*	*8\right	*	*	*8\right	*	*	*	*	*	*	*	*	*	*	*	*	*	*	*	*	*	*	*	*	*	*	*	*	*	*	*	*
.	.	.	.	8f#/L	.	8a\L	.	.	8A\L	-ne-	.	.	.	.	.	.	.	.	4r	.	4r	.	.	.	4r	.	.	.	.	.	.	.	.	.	.	.	.
.	.	.	.	8e#X/J	.	8g#X\J	.	.	8G#X\J	.	.	.	.	.	.	.	.	.	.	.	.	.	.	.	.	.	.	.	.	.	.	.	.	.	.	.	.
=5	=5	=5	=5	=5	=5	=5	=5	=5	=5	=5	=5	=5	=5	=5	=5	=5	=5	=5	=5	=5	=5	=5	=5	=5	=5	=5	=5	=5	=5	=5	=5	=5	=5	=5	=5	=5	=5
!	!	!	!	!	!	!	!	!	!	!	!	!	!	!	!	!	!	!	!LO:TX:a:i:t=3	!	!LO:TX:a:i:t=3	!	!	!	!LO:TX:a:i:t=40.	!	!	!	!	!	!	!	!	!	!	!	!
!	!	!	!	!	!	!	!	!	!	!	!	!LO:N:vis=00	!	!	!	!	!	!	!LO:N:vis=0	!	!LO:N:vis=0	!	!	!	!	!	!	!	!	!	!	!	!	!	!	!LO:N:vis=00	!
2D\]	.	2d\	.	8f#/L	.	8a\L	.	2.ryy	8A\L	-di-	.	0.r	.	2.ryy	2.ryy	2.ryy	2.ryy	2.r	1.r	.	1.r	.	2.r	.	2.r	.	2.r	.	2.r	.	2.r	.	2.r	.	2.ryy	0.r	.
.	.	.	.	8a/J	.	8dd\J	.	.	8d\J	.	.	.	.	.	.	.	.	.	.	.	.	.	.	.	.	.	.	.	.	.	.	.	.	.	.	.	.
.	.	.	.	8f#/L	.	4dd\	.	.	4d\	-ctus	.	.	.	.	.	.	.	.	.	.	.	.	.	.	.	.	.	.	.	.	.	.	.	.	.	.	.
.	.	.	.	8d/J	.	.	.	.	.	.	.	.	.	.	.	.	.	.	.	.	.	.	.	.	.	.	.	.	.	.	.	.	.	.	.	.	.
4r	.	4r	.	8a/L	.	8ff#\L	.	.	8f#\L	qui	.	.	.	.	.	.	.	.	.	.	.	.	.	.	.	.	.	.	.	.	.	.	.	.	.	.	.
.	.	.	.	8g/J	.	8ee\J	.	.	8e\J	.	.	.	.	.	.	.	.	.	.	.	.	.	.	.	.	.	.	.	.	.	.	.	.	.	.	.	.
=6	=6	=6	=6	=6	=6	=6	=6	=6	=6	=6	=6	=6	=6	=6	=6	=6	=6	=6	=6	=6	=6	=6	=6	=6	=6	=6	=6	=6	=6	=6	=6	=6	=6	=6	=6	=6	=6
!	!	!	!	!LO:LB:g=original	!	!LO:LB:g=original	!	!	!	!	!	!	!	!	!	!	!	!	!	!	!	!	!	!	!	!	!	!	!	!	!	!	!	!	!	!	!
4AA/	.	4A/	.	8r	.	8r	.	2.ryy	2d\	ve-	.	.	.	2.ryy	2.ryy	2.ryy	2.ryy	2.r	.	.	.	.	2.r	.	2.r	.	2.r	.	2.r	.	2.r	.	2.r	.	2.ryy	.	.
.	.	.	.	8f#/L	.	8dd\L	.	.	.	.	.	.	.	.	.	.	.	.	.	.	.	.	.	.	.	.	.	.	.	.	.	.	.	.	.	.	.
4r	.	4r	.	8f#/	.	8dd\	.	.	.	.	.	.	.	.	.	.	.	.	.	.	.	.	.	.	.	.	.	.	.	.	.	.	.	.	.	.	.
.	.	.	.	8f#/J	.	8dd\J	.	.	.	.	.	.	.	.	.	.	.	.	.	.	.	.	.	.	.	.	.	.	.	.	.	.	.	.	.	.	.
4AA/	.	4A/	.	8r	.	8r	.	.	4c#\	-nit	.	.	.	.	.	.	.	.	.	.	.	.	.	.	.	.	.	.	.	.	.	.	.	.	.	.	.
.	.	.	.	8f#/	.	8dd\	.	.	.	.	.	.	.	.	.	.	.	.	.	.	.	.	.	.	.	.	.	.	.	.	.	.	.	.	.	.	.
=7	=7	=7	=7	=7	=7	=7	=7	=7	=7	=7	=7	=7	=7	=7	=7	=7	=7	=7	=7	=7	=7	=7	=7	=7	=7	=7	=7	=7	=7	=7	=7	=7	=7	=7	=7	=7	=7
!LO:LB:g=original	!	!	!	!	!	!	!	!	!LO:LB:g=original	!	!	!	!	!	!	!	!	!	!	!	!	!	!	!	!	!	!	!	!	!	!	!	!	!	!	!	!
!	!	!LO:SIC:o=:v:dopisany dźwięk d ołówkiem w t. 7	!	!	!	!	!	!	!	!	!	!	!	!	!	!	!	!	!	!	!	!	!	!	!	!	!	!	!	!	!	!	!	!	!	!	!
4D\	.	4c#\	.	8r	.	8r	.	2.ryy	2d\	in	.	.	.	2.ryy	2.ryy	2.ryy	2.ryy	2.r	2.r	.	2.r	.	2.r	.	2.r	.	2.r	.	2.r	.	2.r	.	2.r	.	2.ryy	.	.
.	.	.	.	8f#/L	.	8dd\L	.	.	.	.	.	.	.	.	.	.	.	.	.	.	.	.	.	.	.	.	.	.	.	.	.	.	.	.	.	.	.
4D\	.	4c#\	.	8f#/	.	8dd\	.	.	.	.	.	.	.	.	.	.	.	.	.	.	.	.	.	.	.	.	.	.	.	.	.	.	.	.	.	.	.
.	.	.	.	8f#/J	.	8dd\J	.	.	.	.	.	.	.	.	.	.	.	.	.	.	.	.	.	.	.	.	.	.	.	.	.	.	.	.	.	.	.
4D\	.	4c#\	.	8f#/L	.	8dd\L	.	.	8d\L	.	.	.	.	.	.	.	.	.	.	.	.	.	.	.	.	.	.	.	.	.	.	.	.	.	.	.	.
.	.	.	.	8a/J	.	8cc#\J	.	.	8c#\J	.	.	.	.	.	.	.	.	.	.	.	.	.	.	.	.	.	.	.	.	.	.	.	.	.	.	.	.
=8	=8	=8	=8	=8	=8	=8	=8	=8	=8	=8	=8	=8	=8	=8	=8	=8	=8	=8	=8	=8	=8	=8	=8	=8	=8	=8	=8	=8	=8	=8	=8	=8	=8	=8	=8	=8	=8
!	!	!	!	!	!	!	!	!	!LO:SI:o=:v:niejednoznaczny zapis łuku	!	!	!	!	!	!	!	!	!	!	!	!	!	!	!	!	!	!	!	!	!	!	!	!	!	!	!	!
*	*	*rep	*	*	*	*	*	*	*	*	*	*	*	*	*	*	*	*	*	*	*2\right	*	*	*	*	*	*	*	*	*	*	*	*	*	*	*	*
4D\	.	4c#\	.	8r	.	8r	.	2.ryy	(4.B\	no-	.	.	.	2.ryy	2.ryy	2.ryy	2.ryy	2.r	[>2.D/	.	2.d\	.	2.r	.	2.r	.	2.r	.	2.r	.	2.r	.	2.r	.	2.ryy	.	.
.	.	.	.	8g/	.	8b\	.	.	.	.	.	.	.	.	.	.	.	.	.	.	.	.	.	.	.	.	.	.	.	.	.	.	.	.	.	.	.
4D\	.	4c#\	.	8g/L	.	8b\L	.	.	.	.	.	.	.	.	.	.	.	.	.	.	.	.	.	.	.	.	.	.	.	.	.	.	.	.	.	.	.
.	.	.	.	8a/	.	8cc#\	.	.	8c#\	.	.	.	.	.	.	.	.	.	.	.	.	.	.	.	.	.	.	.	.	.	.	.	.	.	.	.	.
4D\	.	4c#\	.	8b/	.	8dd\	.	.	8d\)	-mi-	.	.	.	.	.	.	.	.	.	.	.	.	.	.	.	.	.	.	.	.	.	.	.	.	.	.	.
.	.	.	.	8g/J	.	8b\J	.	.	8B\	-ne	.	.	.	.	.	.	.	.	.	.	.	.	.	.	.	.	.	.	.	.	.	.	.	.	.	.	.
*	*	*Xrep	*	*	*	*	*	*	*	*	*	*	*	*	*	*	*	*	*	*	*	*	*	*	*	*	*	*	*	*	*	*	*	*	*	*	*
=9	=9	=9	=9	=9	=9	=9	=9	=9	=9	=9	=9	=9	=9	=9	=9	=9	=9	=9	=9	=9	=9	=9	=9	=9	=9	=9	=9	=9	=9	=9	=9	=9	=9	=9	=9	=9	=9
!	!	!LO:LB:g=original	!	!	!	!	!	!	!	!	!	!	!	!	!	!	!	!	!LO:LB:g=original	!	!	!	!	!	!	!	!	!	!	!	!	!	!	!	!	!	!
*	*	*clefF4	*	*	*	*	*	*	*	*	*	*	*	*	*	*	*	*	*	*	*	*	*	*	*	*	*	*	*	*	*	*	*	*	*	*	*
!	!	!	!	!	!	!	!	!	!	!	!	!LO:N:vis=00	!	!	!	!	!	!	!	!	!	!	!	!	!	!	!	!	!	!	!	!	!	!	!	!LO:N:vis=00	!
2.D\	.	2.D\	.	8f#/L	.	8a/L	.	2.ryy	8A/L	Do-	.	0.r	.	2.ryy	2.ryy	2.ryy	2.ryy	2.r	2D/]	.	2d\	.	2.r	.	2.r	.	2.r	.	2.r	.	2.r	.	2.r	.	2.ryy	0.r	.
.	.	.	.	16e/L	.	16g/L	.	.	16G/L	-mi-	.	.	.	.	.	.	.	.	.	.	.	.	.	.	.	.	.	.	.	.	.	.	.	.	.	.	.
.	.	.	.	16d/JJ	.	16f#/JJ	.	.	16F#/JJ	.	.	.	.	.	.	.	.	.	.	.	.	.	.	.	.	.	.	.	.	.	.	.	.	.	.	.	.
.	.	.	.	4d/	.	4f#/	.	.	4F#/	-ni	.	.	.	.	.	.	.	.	.	.	.	.	.	.	.	.	.	.	.	.	.	.	.	.	.	.	.
.	.	.	.	4d/	.	4A/ 4f#/	.	.	4A/	qui	.	.	.	.	.	.	.	.	4r	.	4r	.	.	.	.	.	.	.	.	.	.	.	.	.	.	.	.
=10	=10	=10	=10	=10	=10	=10	=10	=10	=10	=10	=10	=10	=10	=10	=10	=10	=10	=10	=10	=10	=10	=10	=10	=10	=10	=10	=10	=10	=10	=10	=10	=10	=10	=10	=10	=10	=10
!	!	!LO:SIC:o:s=:v:2.C#	!	!	!	!	!	!	!	!	!	!	!	!	!	!	!	!	!LO:TX:a:i:t=5.	!	!LO:TX:a:i:t=5.	!	!	!	!	!	!	!	!	!	!	!	!	!	!	!	!
!	!	!	!	!	!	!	!	!	!	!	!	!	!	!	!	!	!	!	!LO:N:vis=00	!	!LO:N:vis=00	!	!	!	!	!	!	!	!	!	!	!	!	!	!	!	!
2.C#/	.	2.BB/	.	2.e/	.	2.A/ 2.g/	.	2.ryy	4.B\	ve-	.	.	.	2.ryy	2.ryy	2.ryy	2.ryy	2.r	0.r	.	0.r	.	2.r	.	2.r	.	2.r	.	2.r	.	2.r	.	2.r	.	2.ryy	.	.
.	.	.	.	.	.	.	.	.	8A\	.	.	.	.	.	.	.	.	.	.	.	.	.	.	.	.	.	.	.	.	.	.	.	.	.	.	.	.
.	.	.	.	.	.	.	.	.	4A\	-nit	.	.	.	.	.	.	.	.	.	.	.	.	.	.	.	.	.	.	.	.	.	.	.	.	.	.	.
=11	=11	=11	=11	=11	=11	=11	=11	=11	=11	=11	=11	=11	=11	=11	=11	=11	=11	=11	=11	=11	=11	=11	=11	=11	=11	=11	=11	=11	=11	=11	=11	=11	=11	=11	=11	=11	=11
2D\	.	2D\	.	2d/	.	2A/ 2f#/	.	2.ryy	4.B\	no-	.	.	.	2.ryy	2.ryy	2.ryy	2.ryy	2.r	.	.	.	.	2.r	.	2.r	.	2.r	.	2.r	.	2.r	.	2.r	.	2.ryy	.	.
.	.	.	.	.	.	.	.	.	8A\	-mi-	.	.	.	.	.	.	.	.	.	.	.	.	.	.	.	.	.	.	.	.	.	.	.	.	.	.	.
*8\right	*	*	*	*	*	*	*	*	*	*	*	*	*	*	*	*	*	*	*	*	*	*	*	*	*	*	*	*	*	*	*	*	*	*	*	*	*
8D\L	.	8D\L	.	4A/	.	8f#/L	.	.	4A\	-ne	.	.	.	.	.	.	.	.	.	.	.	.	.	.	.	.	.	.	.	.	.	.	.	.	.	.	.
8C#\J	.	8C#\J	.	.	.	8e/J	.	.	.	.	.	.	.	.	.	.	.	.	.	.	.	.	.	.	.	.	.	.	.	.	.	.	.	.	.	.	.
=12	=12	=12	=12	=12	=12	=12	=12	=12	=12	=12	=12	=12	=12	=12	=12	=12	=12	=12	=12	=12	=12	=12	=12	=12	=12	=12	=12	=12	=12	=12	=12	=12	=12	=12	=12	=12	=12
*	*	*	*	*	*	*	*	*	*	*ij	*	*	*	*	*	*	*	*	*	*	*	*	*	*	*	*	*	*	*	*	*	*	*	*	*	*	*
4BB/	.	4BB/	.	8r	.	8r	.	2.ryy	4.d\	no-	.	.	.	2.ryy	2.ryy	2.ryy	2.ryy	2.r	.	.	.	.	2.r	.	2.r	.	2.r	.	2.r	.	2.r	.	2.r	.	2.ryy	.	.
.	.	.	.	8f#/	.	8dd\L	.	.	.	.	.	.	.	.	.	.	.	.	.	.	.	.	.	.	.	.	.	.	.	.	.	.	.	.	.	.	.
*	*	*	*	*tremolo	*	*	*	*	*	*	*	*	*	*	*	*	*	*	*	*	*	*	*	*	*	*	*	*	*	*	*	*	*	*	*	*	*
4AA#X/	.	4AA#X/	.	8f#/L	.	8dd\	.	.	.	.	.	.	.	.	.	.	.	.	.	.	.	.	.	.	.	.	.	.	.	.	.	.	.	.	.	.	.
.	.	.	.	8f#/	.	8cc#\	.	.	8c#\	-mi-	.	.	.	.	.	.	.	.	.	.	.	.	.	.	.	.	.	.	.	.	.	.	.	.	.	.	.
8BB/L	.	8BB/L	.	8f#/	.	8dd\	.	.	8d\	.	.	.	.	.	.	.	.	.	.	.	.	.	.	.	.	.	.	.	.	.	.	.	.	.	.	.	.
8D/J	.	8D/J	.	8f#/J	.	8b\J	.	.	8B\	-ne	.	.	.	.	.	.	.	.	.	.	.	.	.	.	.	.	.	.	.	.	.	.	.	.	.	.	.
*	*	*	*	*Xtremolo	*	*	*	*	*	*Xij	*	*	*	*	*	*	*	*	*	*	*	*	*	*	*	*	*	*	*	*	*	*	*	*	*	*	*
=13	=13	=13	=13	=13	=13	=13	=13	=13	=13	=13	=13	=13	=13	=13	=13	=13	=13	=13	=13	=13	=13	=13	=13	=13	=13	=13	=13	=13	=13	=13	=13	=13	=13	=13	=13	=13	=13
!	!	!	!	!	!	!LO:LB:g=original	!	!	!LO:LB:g=original	!	!	!	!	!	!	!	!	!	!	!	!	!	!	!	!	!	!	!	!	!	!	!	!	!	!	!	!
*	*	*clefC3	*	*	*	*	*	*	*	*	*	*	*	*	*	*	*	*	*	*	*	*	*	*	*	*	*	*	*	*	*	*	*	*	*	*	*
!	!	!	!	!	!	!	!	!	!	!	!	!LO:N:vis=00	!	!	!	!	!	!	!	!	!	!	!	!	!	!	!	!	!	!	!	!	!	!	!	!	!
*	*	*	*	*	*	*	*	*	*2\right	*	*	*	*	*	*	*	*	*	*	*	*	*	*	*	*	*	*	*	*	*	*	*	*	*	*	*	*
!	!	!	!	!	!	!	!	!	!	!	!	!	!	!	!	!	!	!	!	!	!	!	!	!	!	!	!	!	!	!	!	!	!	!	!	!LO:N:vis=00	!
4E\	.	2e\	.	8r	.	8r	.	2.ryy	2A\	Do-	.	0.r	.	2.ryy	2.ryy	2.ryy	2.ryy	2.r	.	.	.	.	2.r	.	2.r	.	2.r	.	2.r	.	2.r	.	2.r	.	2.ryy	0.r	.
.	.	.	.	8c#/L	.	8a\L	.	.	.	.	.	.	.	.	.	.	.	.	.	.	.	.	.	.	.	.	.	.	.	.	.	.	.	.	.	.	.
4r	.	.	.	8c#/	.	8a\	.	.	.	.	.	.	.	.	.	.	.	.	.	.	.	.	.	.	.	.	.	.	.	.	.	.	.	.	.	.	.
.	.	.	.	8c#/J	.	8a\J	.	.	.	.	.	.	.	.	.	.	.	.	.	.	.	.	.	.	.	.	.	.	.	.	.	.	.	.	.	.	.
!	!	!	!	!LO:LB:g=original	!	!	!	!	!	!	!	!	!	!	!	!	!	!	!	!	!	!	!	!	!	!	!	!	!	!	!	!	!	!	!	!	!
4E\	.	4G#X/	.	8r	.	8r	.	.	4B\	-mi-	.	.	.	.	.	.	.	.	.	.	.	.	.	.	.	.	.	.	.	.	.	.	.	.	.	.	.
.	.	.	.	8d/ 8e/	.	8b\	.	.	.	.	.	.	.	.	.	.	.	.	.	.	.	.	.	.	.	.	.	.	.	.	.	.	.	.	.	.	.
=14	=14	=14	=14	=14	=14	=14	=14	=14	=14	=14	=14	=14	=14	=14	=14	=14	=14	=14	=14	=14	=14	=14	=14	=14	=14	=14	=14	=14	=14	=14	=14	=14	=14	=14	=14	=14	=14
4AA/	.	2.A^>/	.	8r	.	8r	.	2.ryy	2c#\	-ni	.	.	.	2.ryy	2.ryy	2.ryy	2.ryy	2.r	2.r	.	2.r	.	2.r	.	2.r	.	2.r	.	2.r	.	2.r	.	2.r	.	2.ryy	.	.
.	.	.	.	8c#/L 8e/	.	8cc#\L	.	.	.	.	.	.	.	.	.	.	.	.	.	.	.	.	.	.	.	.	.	.	.	.	.	.	.	.	.	.	.
4r	.	.	.	8c#/ 8e/	.	8cc#\	.	.	.	.	.	.	.	.	.	.	.	.	.	.	.	.	.	.	.	.	.	.	.	.	.	.	.	.	.	.	.
.	.	.	.	8a/	.	8cc#\	.	.	.	.	.	.	.	.	.	.	.	.	.	.	.	.	.	.	.	.	.	.	.	.	.	.	.	.	.	.	.
4A\	.	.	.	8b/	.	8dd\	.	.	8d\L	in	.	.	.	.	.	.	.	.	.	.	.	.	.	.	.	.	.	.	.	.	.	.	.	.	.	.	.
.	.	.	.	8cc#/J	.	8ee\J	.	.	8e\J	.	.	.	.	.	.	.	.	.	.	.	.	.	.	.	.	.	.	.	.	.	.	.	.	.	.	.	.
=15	=15	=15	=15	=15	=15	=15	=15	=15	=15	=15	=15	=15	=15	=15	=15	=15	=15	=15	=15	=15	=15	=15	=15	=15	=15	=15	=15	=15	=15	=15	=15	=15	=15	=15	=15	=15	=15
!	!	!	!	!	!	!	!	!	!	!	!	!	!	!	!	!	!	!	!	!	!LO:LB:g=original	!	!	!	!	!	!	!	!	!	!	!	!	!	!	!	!
4D\	.	4D/	.	8r	.	8r	.	2.ryy	4.f#\	no-	.	.	.	2.ryy	2.ryy	2.ryy	2.ryy	2.r	4r	.	4r	.	2.r	.	2.r	.	2.r	.	2.r	.	2.r	.	2.r	.	2.ryy	.	.
*	*	*	*	*8\right	*	*	*	*	*	*	*	*	*	*	*	*	*	*	*	*	*	*	*	*	*	*	*	*	*	*	*	*	*	*	*	*	*
.	.	.	.	8a\L	.	8ff#\L	.	.	.	.	.	.	.	.	.	.	.	.	.	.	.	.	.	.	.	.	.	.	.	.	.	.	.	.	.	.	.
4r	.	4r	.	8a\	.	8ff#\	.	.	.	.	.	.	.	.	.	.	.	.	4r	.	4r	.	.	.	.	.	.	.	.	.	.	.	.	.	.	.	.
.	.	.	.	8a#X\	.	8ee\	.	.	8c#\	-mi-	.	.	.	.	.	.	.	.	.	.	.	.	.	.	.	.	.	.	.	.	.	.	.	.	.	.	.
!LO:LB:g=original	!	!	!	!	!	!	!	!	!	!	!	!	!	!	!	!	!	!	!	!	!	!	!	!	!	!	!	!	!	!	!	!	!	!	!	!	!
!	!	!	!	!	!	!	!	!	!LO:SIC:o:s=:v:triola oznaczona liczbą i łukiem	!	!	!	!	!	!	!	!	!	!	!	!	!	!	!	!	!	!	!	!	!	!	!	!	!	!	!	!
4D\	.	4D/	.	8b\	.	8dd\	.	.	12e\L	-ne	.	.	.	.	.	.	.	.	4d\	.	4f#\	.	.	.	.	.	.	.	.	.	.	.	.	.	.	.	.
.	.	.	.	.	.	.	.	.	12d\	.	.	.	.	.	.	.	.	.	.	.	.	.	.	.	.	.	.	.	.	.	.	.	.	.	.	.	.
.	.	.	.	8f#\J	.	8b\J	.	.	.	.	.	.	.	.	.	.	.	.	.	.	.	.	.	.	.	.	.	.	.	.	.	.	.	.	.	.	.
.	.	.	.	.	.	.	.	.	12B\J	.	.	.	.	.	.	.	.	.	.	.	.	.	.	.	.	.	.	.	.	.	.	.	.	.	.	.	.
=16	=16	=16	=16	=16	=16	=16	=16	=16	=16	=16	=16	=16	=16	=16	=16	=16	=16	=16	=16	=16	=16	=16	=16	=16	=16	=16	=16	=16	=16	=16	=16	=16	=16	=16	=16	=16	=16
!	!	!	!	!	!	!	!	!	!LO:SIC:o=:v:niejednoznaczny zapis ozdobnika	!	!	!	!	!	!	!	!	!	!	!	!	!	!	!	!	!	!	!	!	!	!	!	!	!	!	!	!
4E\	.	4E/	.	8r	.	8r	.	2.ryy	2AW\	Do-	.	.	.	2.ryy	2.ryy	2.ryy	2.ryy	2.r	4r	.	4r	.	2.r	.	2.r	.	2.r	.	2.r	.	2.r	.	2.r	.	2.ryy	.	.
*	*	*	*	*tremolo	*	*	*	*	*	*	*	*	*	*	*	*	*	*	*	*	*	*	*	*	*	*	*	*	*	*	*	*	*	*	*	*	*
.	.	.	.	8c#/ 8e/L	.	8a/L	.	.	.	.	.	.	.	.	.	.	.	.	.	.	.	.	.	.	.	.	.	.	.	.	.	.	.	.	.	.	.
4E\	.	4E/	.	8c#/ 8e/	.	8a/	.	.	.	.	.	.	.	.	.	.	.	.	4e\	.	4e\	.	.	.	.	.	.	.	.	.	.	.	.	.	.	.	.
.	.	.	.	8c#/ 8e/J	.	8a/J	.	.	.	.	.	.	.	.	.	.	.	.	.	.	.	.	.	.	.	.	.	.	.	.	.	.	.	.	.	.	.
*	*	*	*	*Xtremolo	*	*	*	*	*	*	*	*	*	*	*	*	*	*	*	*	*	*	*	*	*	*	*	*	*	*	*	*	*	*	*	*	*
4E\	.	4E/	.	8r	.	8r	.	.	8c#\L	-mi-	.	.	.	.	.	.	.	.	4e\	.	4e\	.	.	.	.	.	.	.	.	.	.	.	.	.	.	.	.
.	.	.	.	8d/ 8e/	.	8g#X/	.	.	8B\J	.	.	.	.	.	.	.	.	.	.	.	.	.	.	.	.	.	.	.	.	.	.	.	.	.	.	.	.
=17	=17	=17	=17	=17	=17	=17	=17	=17	=17	=17	=17	=17	=17	=17	=17	=17	=17	=17	=17	=17	=17	=17	=17	=17	=17	=17	=17	=17	=17	=17	=17	=17	=17	=17	=17	=17	=17
!	!	!	!	!	!	!	!	!	!	!	!	!LO:N:vis=0	!	!	!	!	!	!	!	!	!	!	!	!	!	!	!	!	!	!	!	!	!	!	!	!	!
2AA/	.	2A/	.	2c#/ 2e/	.	2a/	.	2.ryy	2A\	-ni	.	1.r	.	2.ryy	2.ryy	2.ryy	2.ryy	2.r	2A/	.	2e\	.	2.r	.	2.r	.	2.r	.	2.r	.	2.r	.	2.r	.	2.ryy	2.r	.
!	!	!	!	!	!LO:DY:b	!	!LO:DY:b	!	!	!	!	!	!	!	!	!	!	!	!	!	!	!	!	!	!	!	!	!	!	!	!	!	!	!	!	!	!
4C#/	.	4c#\	.	4ee\	p	4aa\	p	.	4r	.	.	.	.	.	.	.	.	.	4r	.	4r	.	.	.	.	.	.	.	.	.	.	.	.	.	.	.	.
=18	=18	=18	=18	=18	=18	=18	=18	=18	=18	=18	=18	=18	=18	=18	=18	=18	=18	=18	=18	=18	=18	=18	=18	=18	=18	=18	=18	=18	=18	=18	=18	=18	=18	=18	=18	=18	=18
!	!	!LO:LB:g=original	!	!	!	!	!	!	!	!	!	!	!	!	!	!	!	!	!	!	!	!	!	!	!	!	!	!	!	!	!	!	!	!	!	!	!
*	*	*	*	*^	*	*	*	*	*	*	*	*	*	*	*	*	*	*	*	*	*	*	*	*	*	*	*	*	*	*	*	*	*	*	*	*	*
!	!	!	!	!	!	!	!	!	!	!LO:TX:a:i:t=16.	!	!	!	!	!	!	!	!	!	!LO:TX:a:i:t=1	!	!LO:TX:a:i:t=1	!	!	!	!	!	!	!	!	!	!	!	!	!	!	!	!
!	!	!	!	!	!	!	!	!	!	!LO:N:vis=00	!	!	!	!	!	!	!	!	!	!	!	!	!	!	!	!	!	!	!	!	!	!	!	!	!	!	!	!
4D\	.	4d\	.	4ryy	4b\	.	4gg#X\	.	2.ryy	0.r	.	.	.	.	2.ryy	2.ryy	2.ryy	2.ryy	2.r	2.r	.	2.r	.	2.r	.	2.r	.	2.r	.	2.r	.	2.r	.	2.r	.	2.ryy	4r	.
4C#\	.	4c#\	.	2ee/	4a\	.	4aa\	.	.	.	.	.	.	.	.	.	.	.	.	.	.	.	.	.	.	.	.	.	.	.	.	.	.	.	.	.	4r	.
*	*	*	*	*	*	*	*	*	*	*	*	*	*	*	*	*	*	*	*	*	*	*	*	*	*	*	*	*	*	*	*	*	*	*	*	*	*4\right	*
!	!	!	!	!	!	!	!	!	!	!	!	!	!	!	!	!	!	!	!	!	!	!	!	!	!	!	!	!	!	!	!	!	!	!	!	!	!LO:TX:a:i:t=Solo	!
4D\	.	4d\	.	.	4dd\	.	4ff#\	.	.	.	.	.	.	.	.	.	.	.	.	.	.	.	.	.	.	.	.	.	.	.	.	.	.	.	.	.	4ddd\	p
*	*	*	*	*v	*v	*	*	*	*	*	*	*	*	*	*	*	*	*	*	*	*	*	*	*	*	*	*	*	*	*	*	*	*	*	*	*	*	*
=19	=19	=19	=19	=19	=19	=19	=19	=19	=19	=19	=19	=19	=19	=19	=19	=19	=19	=19	=19	=19	=19	=19	=19	=19	=19	=19	=19	=19	=19	=19	=19	=19	=19	=19	=19	=19	=19
4E\	.	4e\	.	4cc#\	.	4ee\	.	2.ryy	.	.	.	2.r	.	2.ryy	2.ryy	2.ryy	2.ryy	2.r	4r	.	4r	.	2.r	.	2.r	.	2.r	.	2.r	.	2.r	.	2.r	.	2.ryy	4.eee\	.
4r	.	4r	.	4r	.	4r	.	.	.	.	.	.	.	.	.	.	.	.	4r	.	4r	.	.	.	.	.	.	.	.	.	.	.	.	.	.	.	.
*	*	*	*	*	*	*	*	*	*	*	*	*	*	*	*	*	*	*	*	*	*	*	*	*	*	*	*	*	*	*	*	*	*	*	*	*8\right	*
.	.	.	.	.	.	.	.	.	.	.	.	.	.	.	.	.	.	.	.	.	.	.	.	.	.	.	.	.	.	.	.	.	.	.	.	8cccn\	.
4E\	.	4e\	.	4g#X\ 4b\	.	4ee\	.	.	.	.	.	.	.	.	.	.	.	.	4e\	.	4e\	.	.	.	.	.	.	.	.	.	.	.	.	.	.	8bb\L	.
.	.	.	.	.	.	.	.	.	.	.	.	.	.	.	.	.	.	.	.	.	.	.	.	.	.	.	.	.	.	.	.	.	.	.	.	8gg#X\J	.
=20	=20	=20	=20	=20	=20	=20	=20	=20	=20	=20	=20	=20	=20	=20	=20	=20	=20	=20	=20	=20	=20	=20	=20	=20	=20	=20	=20	=20	=20	=20	=20	=20	=20	=20	=20	=20	=20
*	*	*	*	*	*	*	*	*	*	*	*	*4\right	*	*	*	*	*	*	*	*	*	*	*	*	*	*	*	*	*	*	*	*	*	*	*	*	*
!	!	!	!	!	!	!	!	!	!	!	!	!LO:TX:a:i:t=Solo	!	!	!	!	!	!	!	!	!	!	!	!	!	!	!	!	!	!	!	!	!	!	!	!	!
[2.A\	.	2.A^/	.	4cc#\	.	4ee\	.	2.ryy	.	.	.	4e\	Be-	2.ryy	2.ryy	2.ryy	2.ryy	2.r	4A/	.	4e\	.	2.r	.	2.r	.	2.r	.	2.r	.	2.r	.	2.r	.	2.ryy	4aa\	.
.	.	.	.	4dd\	.	4ff#\	.	.	.	.	.	4f#\	.	.	.	.	.	.	4r	.	4r	.	.	.	.	.	.	.	.	.	.	.	.	.	.	4r	.
*	*	*	*	*	*	*	*	*	*	*	*	*8\right	*	*	*	*	*	*	*	*	*	*	*	*	*	*	*	*	*	*	*	*	*	*	*	*	*
.	.	.	.	8cc#\L	.	8ee\L	.	.	.	.	.	8e\L	-ne-	.	.	.	.	.	4r	.	4r	.	.	.	.	.	.	.	.	.	.	.	.	.	.	4r	.
.	.	.	.	8b#X\J	.	8dd#X\J	.	.	.	.	.	8d#X\J	.	.	.	.	.	.	.	.	.	.	.	.	.	.	.	.	.	.	.	.	.	.	.	.	.
=21	=21	=21	=21	=21	=21	=21	=21	=21	=21	=21	=21	=21	=21	=21	=21	=21	=21	=21	=21	=21	=21	=21	=21	=21	=21	=21	=21	=21	=21	=21	=21	=21	=21	=21	=21	=21	=21
!	!	!	!	!	!	!LO:LB:g=original	!	!	!	!	!	!	!	!	!	!	!	!	!LO:LB:g=original	!	!	!	!	!	!	!	!	!	!	!	!	!	!	!	!	!	!
!	!	!	!	!	!	!	!	!	!	!	!	!	!	!	!	!	!	!	!	!	!LO:TX:a:i:t=3	!	!	!	!	!	!	!	!	!	!	!	!	!	!	!LO:TX:a:i:t=26	!
!	!	!	!	!	!	!	!	!	!	!	!	!	!	!	!	!	!	!	!LO:N:vis=0	!	!LO:N:vis=0	!	!	!	!	!	!	!	!	!	!	!	!	!	!	!LO:N:vis=00	!
2A\]	.	2A/	.	8cc#\L	.	8ee\L	.	2.ryy	.	.	.	8e\L	-di-	2.ryy	2.ryy	2.ryy	2.ryy	2.r	1.r	.	1.r	.	2.r	.	2.r	.	2.r	.	2.r	.	2.r	.	2.r	.	2.ryy	0.r	.
.	.	.	.	8ee\	.	8aa\J	.	.	.	.	.	8a\J	.	.	.	.	.	.	.	.	.	.	.	.	.	.	.	.	.	.	.	.	.	.	.	.	.
.	.	.	.	8cc#\	.	4aa\	.	.	.	.	.	4a\	-ctus	.	.	.	.	.	.	.	.	.	.	.	.	.	.	.	.	.	.	.	.	.	.	.	.
.	.	.	.	8a\J	.	.	.	.	.	.	.	.	.	.	.	.	.	.	.	.	.	.	.	.	.	.	.	.	.	.	.	.	.	.	.	.	.
!	!	!	!	!LO:LB:g=original	!	!	!	!	!	!	!	!	!	!	!	!	!	!	!	!	!	!	!	!	!	!	!	!	!	!	!	!	!	!	!	!	!
4r	.	4r	.	8ee\L	.	8ccc#\L	.	.	.	.	.	8cc#\L	qui	.	.	.	.	.	.	.	.	.	.	.	.	.	.	.	.	.	.	.	.	.	.	.	.
.	.	.	.	8dd\J	.	8bb\J	.	.	.	.	.	8b\J	.	.	.	.	.	.	.	.	.	.	.	.	.	.	.	.	.	.	.	.	.	.	.	.	.
=22	=22	=22	=22	=22	=22	=22	=22	=22	=22	=22	=22	=22	=22	=22	=22	=22	=22	=22	=22	=22	=22	=22	=22	=22	=22	=22	=22	=22	=22	=22	=22	=22	=22	=22	=22	=22	=22
!	!	!	!	!	!	!	!	!	!	!	!	!LO:LB:g=original	!	!	!	!	!	!	!	!	!	!	!	!	!	!	!	!	!	!	!	!	!	!	!	!	!
*	*	*	*	*	*	*	*	*	*	*	*	*2\right	*	*	*	*	*	*	*	*	*	*	*	*	*	*	*	*	*	*	*	*	*	*	*	*	*
!	!	!	!	!	!	!	!	!	!LO:N:vis=00	!	!	!	!	!	!	!	!	!	!	!	!	!	!	!	!	!	!	!	!	!	!	!	!	!	!	!	!
4E\	.	4e\	.	8r	.	8r	.	2.ryy	0.r	.	.	2a\	ve-	2.ryy	2.ryy	2.ryy	2.ryy	2.r	.	.	.	.	2.r	.	2.r	.	2.r	.	2.r	.	2.r	.	2.r	.	2.ryy	.	.
*	*	*	*	*tremolo	*	*	*	*	*	*	*	*	*	*	*	*	*	*	*	*	*	*	*	*	*	*	*	*	*	*	*	*	*	*	*	*	*
.	.	.	.	8cc#\L	.	8aa\L	.	.	.	.	.	.	.	.	.	.	.	.	.	.	.	.	.	.	.	.	.	.	.	.	.	.	.	.	.	.	.
4r	.	4r	.	8cc#\	.	8aa\	.	.	.	.	.	.	.	.	.	.	.	.	.	.	.	.	.	.	.	.	.	.	.	.	.	.	.	.	.	.	.
.	.	.	.	8cc#\J	.	8aa\J	.	.	.	.	.	.	.	.	.	.	.	.	.	.	.	.	.	.	.	.	.	.	.	.	.	.	.	.	.	.	.
*	*	*	*	*Xtremolo	*	*	*	*	*	*	*	*	*	*	*	*	*	*	*	*	*	*	*	*	*	*	*	*	*	*	*	*	*	*	*	*	*
4E\	.	4e\	.	8r	.	8r	.	.	.	.	.	4g#X\	-nit	.	.	.	.	.	.	.	.	.	.	.	.	.	.	.	.	.	.	.	.	.	.	.	.
.	.	.	.	8b\	.	8gg#X\	.	.	.	.	.	.	.	.	.	.	.	.	.	.	.	.	.	.	.	.	.	.	.	.	.	.	.	.	.	.	.
=23	=23	=23	=23	=23	=23	=23	=23	=23	=23	=23	=23	=23	=23	=23	=23	=23	=23	=23	=23	=23	=23	=23	=23	=23	=23	=23	=23	=23	=23	=23	=23	=23	=23	=23	=23	=23	=23
4AA/	.	4A/	.	8r	.	8r	.	2.ryy	.	.	.	2a\	in	2.ryy	2.ryy	2.ryy	2.ryy	2.r	2.r	.	2.r	.	2.r	.	2.r	.	2.r	.	2.r	.	2.r	.	2.r	.	2.ryy	.	.
.	.	.	.	8cc#\L	.	8aa\L	.	.	.	.	.	.	.	.	.	.	.	.	.	.	.	.	.	.	.	.	.	.	.	.	.	.	.	.	.	.	.
4AA/	.	4A/	.	8cc#\	.	8aa\	.	.	.	.	.	.	.	.	.	.	.	.	.	.	.	.	.	.	.	.	.	.	.	.	.	.	.	.	.	.	.
.	.	.	.	8cc#\	.	8aa\	.	.	.	.	.	.	.	.	.	.	.	.	.	.	.	.	.	.	.	.	.	.	.	.	.	.	.	.	.	.	.
4AA/	.	4A/	.	8cc#\	.	8aa\	.	.	.	.	.	8a\L	.	.	.	.	.	.	.	.	.	.	.	.	.	.	.	.	.	.	.	.	.	.	.	.	.
.	.	.	.	8ee\J	.	8gg#X\J	.	.	.	.	.	8g#X\J	.	.	.	.	.	.	.	.	.	.	.	.	.	.	.	.	.	.	.	.	.	.	.	.	.
=24	=24	=24	=24	=24	=24	=24	=24	=24	=24	=24	=24	=24	=24	=24	=24	=24	=24	=24	=24	=24	=24	=24	=24	=24	=24	=24	=24	=24	=24	=24	=24	=24	=24	=24	=24	=24	=24
!LO:LB:g=original	!	!	!	!	!	!	!	!	!	!	!	!	!	!	!	!	!	!	!	!	!	!	!	!	!	!	!	!	!	!	!	!	!	!	!	!	!
4AA/	.	4A/	.	8r	.	8r	.	2.ryy	.	.	.	4.f#\	no-	2.ryy	2.ryy	2.ryy	2.ryy	2.r	2.AA/	.	2.A/	.	2.r	.	2.r	.	2.r	.	2.r	.	2.r	.	2.r	.	2.ryy	.	.
.	.	.	.	8dd\	.	8ff#\	.	.	.	.	.	.	.	.	.	.	.	.	.	.	.	.	.	.	.	.	.	.	.	.	.	.	.	.	.	.	.
4AA/	.	4A/	.	8dd\L	.	8ff#\L	.	.	.	.	.	.	.	.	.	.	.	.	.	.	.	.	.	.	.	.	.	.	.	.	.	.	.	.	.	.	.
.	.	.	.	8ee\	.	8gg#X\	.	.	.	.	.	8g#X\	-mi-	.	.	.	.	.	.	.	.	.	.	.	.	.	.	.	.	.	.	.	.	.	.	.	.
4AA/	.	4A/	.	8ff#\	.	8aa\	.	.	.	.	.	8a\	-ne	.	.	.	.	.	.	.	.	.	.	.	.	.	.	.	.	.	.	.	.	.	.	.	.
.	.	.	.	8dd\J	.	8ff#\J	.	.	.	.	.	(8f#\	.	.	.	.	.	.	.	.	.	.	.	.	.	.	.	.	.	.	.	.	.	.	.	.	.
=25	=25	=25	=25	=25	=25	=25	=25	=25	=25	=25	=25	=25	=25	=25	=25	=25	=25	=25	=25	=25	=25	=25	=25	=25	=25	=25	=25	=25	=25	=25	=25	=25	=25	=25	=25	=25	=25
!	!	!	!	!	!	!	!	!	!	!	!	!	!	!	!	!	!	!	!	!	!LO:LB:g=original	!	!	!	!	!	!	!	!	!	!	!	!	!	!	!	!
!	!	!	!	!	!	!	!	!	!	!	!	!	!	!	!	!	!	!	!	!	!	!	!	!	!	!	!	!	!	!	!	!	!	!	!	!LO:N:vis=00	!
2.AA/	.	2.A/	.	8cc#\L	.	(8ee\L	.	2.ryy	.	.	.	8e\L	Do-	2.ryy	2.ryy	2.ryy	2.ryy	2.r	2AA/	.	2A/	.	2.r	.	2.r	.	2.r	.	2.r	.	2.r	.	2.r	.	2.ryy	0.r	.
*	*	*	*	*	*	*	*	*	*	*	*	*16\right	*	*	*	*	*	*	*	*	*	*	*	*	*	*	*	*	*	*	*	*	*	*	*	*	*
.	.	.	.	16b\L	.	16dd\L	.	.	.	.	.	16d\L	-mi-	.	.	.	.	.	.	.	.	.	.	.	.	.	.	.	.	.	.	.	.	.	.	.	.
.	.	.	.	16a\JJ	.	16cc#\JJ)	.	.	.	.	.	16c#\JJ)	.	.	.	.	.	.	.	.	.	.	.	.	.	.	.	.	.	.	.	.	.	.	.	.	.
.	.	.	.	4a/	.	4cc#\	.	.	.	.	.	4c#\	-ni	.	.	.	.	.	.	.	.	.	.	.	.	.	.	.	.	.	.	.	.	.	.	.	.
.	.	.	.	4a/	.	4e/ 4cc#/	.	.	.	.	.	4e\	qui	.	.	.	.	.	4r	.	4r	.	.	.	.	.	.	.	.	.	.	.	.	.	.	.	.
=26	=26	=26	=26	=26	=26	=26	=26	=26	=26	=26	=26	=26	=26	=26	=26	=26	=26	=26	=26	=26	=26	=26	=26	=26	=26	=26	=26	=26	=26	=26	=26	=26	=26	=26	=26	=26	=26
!	!	!	!	!	!	!	!	!	!	!	!	!	!	!	!	!	!	!	!LO:TX:a:i:t=5.	!	!LO:TX:a:i:t=5	!	!	!	!	!	!	!	!	!	!	!	!	!	!	!	!
!	!	!	!	!	!	!	!	!	!LO:N:vis=00	!	!	!	!	!	!	!	!	!	!	!	!	!	!	!	!	!	!	!	!	!	!	!	!	!	!	!	!
*	*	*	*	*2\right	*	*	*	*	*	*	*	*	*	*	*	*	*	*	*	*	*	*	*	*	*	*	*	*	*	*	*	*	*	*	*	*	*
!	!	!	!	!	!	!	!	!	!	!	!	!	!	!	!	!	!	!	!LO:N:vis=00	!	!LO:N:vis=00	!	!	!	!	!	!	!	!	!	!	!	!	!	!	!	!
2.GG#X/	.	2.G#X/	.	2.b\	.	2.e/ 2.dd/	.	2.ryy	0.r	.	.	4.f#\	ve-	2.ryy	2.ryy	2.ryy	2.ryy	2.r	0.r	.	0.r	.	2.r	.	2.r	.	2.r	.	2.r	.	2.r	.	2.r	.	2.ryy	.	.
.	.	.	.	.	.	.	.	.	.	.	.	8e\	-nit	.	.	.	.	.	.	.	.	.	.	.	.	.	.	.	.	.	.	.	.	.	.	.	.
.	.	.	.	.	.	.	.	.	.	.	.	4e\	in	.	.	.	.	.	.	.	.	.	.	.	.	.	.	.	.	.	.	.	.	.	.	.	.
=27	=27	=27	=27	=27	=27	=27	=27	=27	=27	=27	=27	=27	=27	=27	=27	=27	=27	=27	=27	=27	=27	=27	=27	=27	=27	=27	=27	=27	=27	=27	=27	=27	=27	=27	=27	=27	=27
!	!	!LO:LB:g=original	!	!	!	!	!	!	!	!	!	!	!	!	!	!	!	!	!	!	!	!	!	!	!	!	!	!	!	!	!	!	!	!	!	!	!
!	!	!	!	!	!	!	!	!	!	!	!	!LO:SIC:s:o=:v:=brak taktu 27 (zgodnie z partią Tenore t. 11)	!	!	!	!	!	!	!	!	!	!	!	!	!	!	!	!	!	!	!	!	!	!	!	!	!
2AA/	.	2A/	.	2.a\	.	2.e/ 2.cc#/	.	2.ryy	.	.	.	2.ryy	.	2.ryy	2.ryy	2.ryy	2.ryy	2.r	.	.	.	.	2.r	.	2.r	.	2.r	.	2.r	.	2.r	.	2.r	.	2.ryy	.	.
8A\L	.	8A/L	.	.	.	.	.	.	.	.	.	.	.	.	.	.	.	.	.	.	.	.	.	.	.	.	.	.	.	.	.	.	.	.	.	.	.
8Gn\J	.	8Gn/J	.	.	.	.	.	.	.	.	.	.	.	.	.	.	.	.	.	.	.	.	.	.	.	.	.	.	.	.	.	.	.	.	.	.	.
=28	=28	=28	=28	=28	=28	=28	=28	=28	=28	=28	=28	=28	=28	=28	=28	=28	=28	=28	=28	=28	=28	=28	=28	=28	=28	=28	=28	=28	=28	=28	=28	=28	=28	=28	=28	=28	=28
!	!	!	!	!	!	!LO:LB:g=original	!	!	!	!	!	!	!	!	!	!	!	!	!	!	!	!	!	!	!	!	!	!	!	!	!	!	!	!	!	!	!
4F#\	.	4F#/	.	8r	.	8r	.	2.ryy	.	.	.	(4.a\	no-	2.ryy	2.ryy	2.ryy	2.ryy	2.r	.	.	.	.	2.r	.	2.r	.	2.r	.	2.r	.	2.r	.	2.r	.	2.ryy	.	.
.	.	.	.	8ff#\L	.	8aa\L	.	.	.	.	.	.	.	.	.	.	.	.	.	.	.	.	.	.	.	.	.	.	.	.	.	.	.	.	.	.	.
4D#X\	.	4D#X/	.	8ff#\	.	8aa\	.	.	.	.	.	.	.	.	.	.	.	.	.	.	.	.	.	.	.	.	.	.	.	.	.	.	.	.	.	.	.
.	.	.	.	8b\	.	8ff#\	.	.	.	.	.	8f#\	-mi-	.	.	.	.	.	.	.	.	.	.	.	.	.	.	.	.	.	.	.	.	.	.	.	.
8E\L	.	8E/L	.	8b\	.	8gg\	.	.	.	.	.	8gn\)	.	.	.	.	.	.	.	.	.	.	.	.	.	.	.	.	.	.	.	.	.	.	.	.	.
8G\J	.	8G/J	.	8b\J	.	8ee\J	.	.	.	.	.	8e\	-ne	.	.	.	.	.	.	.	.	.	.	.	.	.	.	.	.	.	.	.	.	.	.	.	.
=29	=29	=29	=29	=29	=29	=29	=29	=29	=29	=29	=29	=29	=29	=29	=29	=29	=29	=29	=29	=29	=29	=29	=29	=29	=29	=29	=29	=29	=29	=29	=29	=29	=29	=29	=29	=29	=29
!	!	!	!	!LO:LB:g=original	!	!	!	!	!	!	!	!LO:LB:g=original	!	!	!	!	!	!	!	!	!	!	!	!	!	!	!	!	!	!	!	!	!	!	!	!	!
!	!	!	!	!	!	!	!	!	!	!	!	!	!	!	!	!	!	!	!	!	!	!	!	!	!	!	!	!	!	!	!	!	!	!	!	!LO:N:vis=00	!
4A\	.	2A/	.	8r	.	8r	.	2.ryy	.	.	.	2d\	Do-	2.ryy	2.ryy	2.ryy	2.ryy	2.r	.	.	.	.	2.r	.	2.r	.	2.r	.	2.r	.	2.r	.	2.r	.	2.ryy	0.r	.
*	*	*	*	*tremolo	*	*tremolo	*	*	*	*	*	*	*	*	*	*	*	*	*	*	*	*	*	*	*	*	*	*	*	*	*	*	*	*	*	*	*
.	.	.	.	8f#/L	.	8dd\	.	.	.	.	.	.	.	.	.	.	.	.	.	.	.	.	.	.	.	.	.	.	.	.	.	.	.	.	.	.	.
4r	.	.	.	8f#/	.	8dd\L	.	.	.	.	.	.	.	.	.	.	.	.	.	.	.	.	.	.	.	.	.	.	.	.	.	.	.	.	.	.	.
.	.	.	.	8f#/J	.	8dd\J	.	.	.	.	.	.	.	.	.	.	.	.	.	.	.	.	.	.	.	.	.	.	.	.	.	.	.	.	.	.	.
*	*	*	*	*Xtremolo	*	*Xtremolo	*	*	*	*	*	*	*	*	*	*	*	*	*	*	*	*	*	*	*	*	*	*	*	*	*	*	*	*	*	*	*
4AA/	.	4C#X/	.	8r	.	8r	.	.	.	.	.	4e\	-mi-	.	.	.	.	.	.	.	.	.	.	.	.	.	.	.	.	.	.	.	.	.	.	.	.
.	.	.	.	8g/ 8a/	.	8ee\	.	.	.	.	.	.	.	.	.	.	.	.	.	.	.	.	.	.	.	.	.	.	.	.	.	.	.	.	.	.	.
=30	=30	=30	=30	=30	=30	=30	=30	=30	=30	=30	=30	=30	=30	=30	=30	=30	=30	=30	=30	=30	=30	=30	=30	=30	=30	=30	=30	=30	=30	=30	=30	=30	=30	=30	=30	=30	=30
!	!	!	!	!	!	!	!	!	!LO:N:vis=00	!	!	!	!	!	!	!	!	!	!	!	!	!	!	!	!	!	!	!	!	!	!	!	!	!	!	!	!
4D\	.	2.D^/	.	8r	.	8r	.	2.ryy	0.r	.	.	2f#\	-ni	2.ryy	2.ryy	2.ryy	2.ryy	2.r	2.r	.	2.r	.	2.r	.	2.r	.	2.r	.	2.r	.	2.r	.	2.r	.	2.ryy	.	.
.	.	.	.	8f#\L 8a\	.	8ff#\L	.	.	.	.	.	.	.	.	.	.	.	.	.	.	.	.	.	.	.	.	.	.	.	.	.	.	.	.	.	.	.
4r	.	.	.	8f#\ 8a\	.	8ff#\	.	.	.	.	.	.	.	.	.	.	.	.	.	.	.	.	.	.	.	.	.	.	.	.	.	.	.	.	.	.	.
.	.	.	.	8dd\	.	8ff#\	.	.	.	.	.	.	.	.	.	.	.	.	.	.	.	.	.	.	.	.	.	.	.	.	.	.	.	.	.	.	.
4D\	.	.	.	8ee\	.	8gg\	.	.	.	.	.	8g\L	in	.	.	.	.	.	.	.	.	.	.	.	.	.	.	.	.	.	.	.	.	.	.	.	.
.	.	.	.	8ff#\J	.	8aa\J	.	.	.	.	.	8a\J	.	.	.	.	.	.	.	.	.	.	.	.	.	.	.	.	.	.	.	.	.	.	.	.	.
=31	=31	=31	=31	=31	=31	=31	=31	=31	=31	=31	=31	=31	=31	=31	=31	=31	=31	=31	=31	=31	=31	=31	=31	=31	=31	=31	=31	=31	=31	=31	=31	=31	=31	=31	=31	=31	=31
*	*	*	*	*	*	*	*	*	*	*	*	*	*	*	*	*	*	*	*^	*	*	*	*	*	*	*	*	*	*	*	*	*	*	*	*	*	*
4G\	.	4G/	.	8r	.	8r	.	2.ryy	.	.	.	4.b\	no-	2.ryy	2.ryy	2.ryy	2.ryy	2.r	4r	4ryy	.	4r	.	2.r	.	2.r	.	2.r	.	2.r	.	2.r	.	2.r	.	2.ryy	.	.
.	.	.	.	8dd\L	.	8bb\L	.	.	.	.	.	.	.	.	.	.	.	.	.	.	.	.	.	.	.	.	.	.	.	.	.	.	.	.	.	.	.	.
4r	.	4r	.	8dd\	.	8bb\	.	.	.	.	.	.	.	.	.	.	.	.	4r	4ryy	.	4r	.	.	.	.	.	.	.	.	.	.	.	.	.	.	.	.
.	.	.	.	8dd#X\J	.	8ff#\	.	.	.	.	.	8f#\	-mi-	.	.	.	.	.	.	.	.	.	.	.	.	.	.	.	.	.	.	.	.	.	.	.	.	.
!	!	!	!	!	!	!	!	!	!	!	!	!LO:SIC:o:s=:v:triola oznaczona liczbą i łukiem	!	!	!	!	!	!	!	!	!	!	!	!	!	!	!	!	!	!	!	!	!	!	!	!	!	!
4GG/	.	4G/	.	8g\L 8ee\	.	8gg\	.	.	.	.	.	12a\L	-ne	.	.	.	.	.	4e/	4A\	.	4g\	.	.	.	.	.	.	.	.	.	.	.	.	.	.	.	.
.	.	.	.	.	.	.	.	.	.	.	.	12g\	.	.	.	.	.	.	.	.	.	.	.	.	.	.	.	.	.	.	.	.	.	.	.	.	.	.
.	.	.	.	8g\J 8b\	.	8ee\J	.	.	.	.	.	.	.	.	.	.	.	.	.	.	.	.	.	.	.	.	.	.	.	.	.	.	.	.	.	.	.	.
.	.	.	.	.	.	.	.	.	.	.	.	12e\J	.	.	.	.	.	.	.	.	.	.	.	.	.	.	.	.	.	.	.	.	.	.	.	.	.	.
*	*	*	*	*	*	*	*	*	*	*	*	*	*	*	*	*	*	*	*v	*v	*	*	*	*	*	*	*	*	*	*	*	*	*	*	*	*	*	*
=32	=32	=32	=32	=32	=32	=32	=32	=32	=32	=32	=32	=32	=32	=32	=32	=32	=32	=32	=32	=32	=32	=32	=32	=32	=32	=32	=32	=32	=32	=32	=32	=32	=32	=32	=32	=32	=32
4AA/	.	4A/	.	8r	.	8r	.	2.ryy	.	.	.	2d\	Do-	2.ryy	2.ryy	2.ryy	2.ryy	2.r	4r	.	4r	.	2.r	.	2.r	.	2.r	.	2.r	.	2.r	.	2.r	.	2.ryy	.	.
*	*	*	*	*tremolo	*	*tremolo	*	*	*	*	*	*	*	*	*	*	*	*	*	*	*	*	*	*	*	*	*	*	*	*	*	*	*	*	*	*	*
.	.	.	.	8f#/L 8a/	.	8dd\	.	.	.	.	.	.	.	.	.	.	.	.	.	.	.	.	.	.	.	.	.	.	.	.	.	.	.	.	.	.	.
4AA/	.	4A/	.	8f#/ 8a/	.	8dd\L	.	.	.	.	.	.	.	.	.	.	.	.	4d\	.	4f#\	.	.	.	.	.	.	.	.	.	.	.	.	.	.	.	.
.	.	.	.	8f#/J 8a/	.	8dd\J	.	.	.	.	.	.	.	.	.	.	.	.	.	.	.	.	.	.	.	.	.	.	.	.	.	.	.	.	.	.	.
*	*	*	*	*Xtremolo	*	*Xtremolo	*	*	*	*	*	*	*	*	*	*	*	*	*	*	*	*	*	*	*	*	*	*	*	*	*	*	*	*	*	*	*
4AA/	.	4A/	.	8r	.	8r	.	.	.	.	.	8f#\L	-mi-	.	.	.	.	.	4A/	.	4e\	.	.	.	.	.	.	.	.	.	.	.	.	.	.	.	.
.	.	.	.	8g/ 8a/	.	8cc#\	.	.	.	.	.	8e\J	.	.	.	.	.	.	.	.	.	.	.	.	.	.	.	.	.	.	.	.	.	.	.	.	.
=33	=33	=33	=33	=33	=33	=33	=33	=33	=33	=33	=33	=33	=33	=33	=33	=33	=33	=33	=33	=33	=33	=33	=33	=33	=33	=33	=33	=33	=33	=33	=33	=33	=33	=33	=33	=33	=33
!LO:LB:g=original	!	!	!	!	!	!	!	!	!	!	!	!	!	!	!	!	!	!	!	!	!	!	!	!	!	!	!	!	!	!	!	!	!	!	!	!	!
!	!	!	!	!	!	!	!	!	!	!	!	!	!	!	!	!	!	!	!	!	!	!	!	!	!	!	!	!	!	!	!	!	!	!	!	!LO:N:vis=00	!
2D\	.	2d\	.	4f#/ 4a/	.	(8dd\L	.	2.ryy	.	.	.	2d\	-ni	2.ryy	2.ryy	2.ryy	2.ryy	2.r	2F#/	.	2d\	.	2.r	.	2.r	.	2.r	.	2.r	.	2.r	.	2.r	.	2.ryy	0.r	.
.	.	.	.	.	.	8a\	.	.	.	.	.	.	.	.	.	.	.	.	.	.	.	.	.	.	.	.	.	.	.	.	.	.	.	.	.	.	.
.	.	.	.	8d/L	.	8f#\	.	.	.	.	.	.	.	.	.	.	.	.	.	.	.	.	.	.	.	.	.	.	.	.	.	.	.	.	.	.	.
.	.	.	.	8f#/	.	8a\	.	.	.	.	.	.	.	.	.	.	.	.	.	.	.	.	.	.	.	.	.	.	.	.	.	.	.	.	.	.	.
4r	.	4r	.	8d/	.	8f#\	.	.	.	.	.	4r	.	.	.	.	.	.	4r	.	4r	.	.	.	.	.	.	.	.	.	.	.	.	.	.	.	.
.	.	.	.	8f#/J	.	8a\J)	.	.	.	.	.	.	.	.	.	.	.	.	.	.	.	.	.	.	.	.	.	.	.	.	.	.	.	.	.	.	.
=34	=34	=34	=34	=34	=34	=34	=34	=34	=34	=34	=34	=34	=34	=34	=34	=34	=34	=34	=34	=34	=34	=34	=34	=34	=34	=34	=34	=34	=34	=34	=34	=34	=34	=34	=34	=34	=34
!	!	!LO:LB:g=original	!	!	!	!	!	!	!LO:LB:g=original	!	!	!	!	!	!	!	!	!	!LO:LB:g=original	!	!	!	!	!	!	!	!	!	!	!	!	!	!	!	!	!	!
*	*	*	*	*	*	*tremolo	*	*	*	*	*	*	*	*	*	*	*	*	*	*	*	*	*	*	*	*	*	*	*	*	*	*	*	*	*	*	*
*	*	*	*	*tremolo	*	*2\right	*	*	*	*	*	*	*	*	*	*	*	*	*	*	*	*	*	*	*	*	*	*	*	*	*	*	*	*	*	*	*
!	!	!	!	!	!	!	!LO:DY:b	!	!	!	!	!LO:TX:a:i:t=1	!	!	!	!	!	!	!	!	!	!	!	!	!	!	!	!	!	!	!	!	!	!	!	!	!
4AA/	.	4A/	.	8e/L	.	8g\L	p	2.ryy	4e\	Be-	p	2.r	.	2.ryy	2.ryy	2.ryy	2.ryy	2.r	4r	.	4r	p	2.r	.	2.r	.	2.r	.	2.r	.	4r	p	4r	p	2.ryy	.	.
.	.	.	.	8A/	.	8a\	.	.	.	.	.	.	.	.	.	.	.	.	.	.	.	.	.	.	.	.	.	.	.	.	.	.	.	.	.	.	.
*	*	*	*	*	*	*	*	*	*	*	*	*	*	*	*	*	*	*	*	*	*	*	*	*	*	*	*	*	*	*	*4\right	*	*4\right	*	*	*	*
4r	.	4r	.	8e/	.	8g\	.	.	4c#\	.	.	.	.	.	.	.	.	.	4A/	p	4e\	.	.	.	.	.	.	.	.	.	4cc#\	.	4ee\	.	.	.	.
.	.	.	.	8A/	.	8a\	.	.	.	.	.	.	.	.	.	.	.	.	.	.	.	.	.	.	.	.	.	.	.	.	.	.	.	.	.	.	.
4AA/	.	4A/	.	8e/	.	8g\	.	.	4A\	-ne-	.	.	.	.	.	.	.	.	4r	.	4r	.	.	.	.	.	.	.	.	.	4r	.	4r	.	.	.	.
.	.	.	.	8A/J	.	8a\J	.	.	.	.	.	.	.	.	.	.	.	.	.	.	.	.	.	.	.	.	.	.	.	.	.	.	.	.	.	.	.
=35	=35	=35	=35	=35	=35	=35	=35	=35	=35	=35	=35	=35	=35	=35	=35	=35	=35	=35	=35	=35	=35	=35	=35	=35	=35	=35	=35	=35	=35	=35	=35	=35	=35	=35	=35	=35	=35
!	!	!	!	!	!	!LO:LB:g=original	!	!	!	!	!	!	!	!	!	!	!	!	!	!	!	!	!	!	!	!	!	!	!	!	!	!	!	!	!	!	!
*	*	*rep	*	*tremolo	*	*	*	*	*	*	*	*	*	*	*	*	*	*	*	*	*	*	*	*	*	*	*	*	*	*	*	*	*	*	*	*	*
!	!	!	!	!LO:SIC:o=:v:znak początku repetycji	!	!	!	!	!	!	!	!	!	!	!	!	!	!	!	!	!	!	!	!	!	!	!	!	!	!	!	!	!	!	!	!	!
4AA/	.	4A/	.	8d/L	.	8f#/L	.	2.ryy	8f#\L	-di-	.	(4a\	Be-	2.ryy	2.ryy	2.ryy	2.ryy	2.r	4r	.	4r	.	2.r	.	2.r	.	2.r	.	2.r	.	4r	.	4r	.	2.ryy	.	.
.	.	.	.	8A/	.	8a/	.	.	8d\J	.	.	.	.	.	.	.	.	.	.	.	.	.	.	.	.	.	.	.	.	.	.	.	.	.	.	.	.
4r	.	4r	.	8d/	.	8f#/	.	.	4d\	-ctus	.	4f#\)	.	.	.	.	.	.	4F#/	.	4d\	.	.	.	.	.	.	.	.	.	4dd\	.	4ff#\	.	.	.	.
.	.	.	.	8A/	.	8a/	.	.	.	.	.	.	.	.	.	.	.	.	.	.	.	.	.	.	.	.	.	.	.	.	.	.	.	.	.	.	.
!	!	!	!	!	!	!	!	!	!	!	!	!LO:SIC:o:s=:v:niejednoznaczny zapis artykulacji	!	!	!	!	!	!	!	!	!	!	!	!	!	!	!	!	!	!	!	!	!	!	!	!	!
4AA/	.	4A/	.	8d/	.	8f#/	.	.	4r	.	.	4d`\	-ne-	.	.	.	.	.	4r	.	4r	.	.	.	.	.	.	.	.	.	4r	.	4r	.	.	.	.
.	.	.	.	8A/J	.	8a/J	.	.	.	.	.	.	.	.	.	.	.	.	.	.	.	.	.	.	.	.	.	.	.	.	.	.	.	.	.	.	.
*	*	*Xrep	*	*	*	*	*	*	*	*	*	*	*	*	*	*	*	*	*	*	*	*	*	*	*	*	*	*	*	*	*	*	*	*	*	*	*
=36	=36	=36	=36	=36	=36	=36	=36	=36	=36	=36	=36	=36	=36	=36	=36	=36	=36	=36	=36	=36	=36	=36	=36	=36	=36	=36	=36	=36	=36	=36	=36	=36	=36	=36	=36	=36	=36
!	!	!	!	!LO:LB:g=original	!	!	!	!	!	!	!	!LO:LB:g=original	!	!	!	!	!	!	!	!	!LO:LB:g=original	!	!	!	!	!	!	!	!	!	!	!	!	!	!	!	!
*	*	*rep	*	*	*	*	*	*	*	*	*	*	*	*	*	*	*	*	*	*	*	*	*	*	*	*	*	*	*	*	*	*	*	*	*	*	*
4AA/	.	4A/	.	8e/L	.	8g/L	.	2.ryy	4e\	Be-	.	8a\L	-di-	2.ryy	2.ryy	2.ryy	2.ryy	2.r	4r	.	4r	.	2.r	.	2.r	.	2.r	.	2.r	.	4r	.	4r	.	2.ryy	.	.
.	.	.	.	8A/	.	8a/	.	.	.	.	.	8g\J	.	.	.	.	.	.	.	.	.	.	.	.	.	.	.	.	.	.	.	.	.	.	.	.	.
4r	.	4r	.	8e/	.	8g/	.	.	4c#\	.	.	4e\	-ctus	.	.	.	.	.	4A/	.	4e\	.	.	.	.	.	.	.	.	.	4cc#\	.	4ee\	.	.	.	.
.	.	.	.	8A/	.	8a/	.	.	.	.	.	.	.	.	.	.	.	.	.	.	.	.	.	.	.	.	.	.	.	.	.	.	.	.	.	.	.
4AA/	.	4A/	.	8e/	.	8g/	.	.	4A\	-ne-	.	4r	.	.	.	.	.	.	4r	.	4r	.	.	.	.	.	.	.	.	.	4r	.	4r	.	.	.	.
.	.	.	.	8A/J	.	8a/J	.	.	.	.	.	.	.	.	.	.	.	.	.	.	.	.	.	.	.	.	.	.	.	.	.	.	.	.	.	.	.
*	*	*Xrep	*	*	*	*	*	*	*	*	*	*	*	*	*	*	*	*	*	*	*	*	*	*	*	*	*	*	*	*	*	*	*	*	*	*	*
!	!	!	!	!LO:SIC:o=:v:znak zakończenia repetycji	!	!	!	!	!	!	!	!	!	!	!	!	!	!	!	!	!	!	!	!	!	!	!	!	!	!	!	!	!	!	!	!	!
=37	=37	=37	=37	=37	=37	=37	=37	=37	=37	=37	=37	=37	=37	=37	=37	=37	=37	=37	=37	=37	=37	=37	=37	=37	=37	=37	=37	=37	=37	=37	=37	=37	=37	=37	=37	=37	=37
!	!	!	!	!	!	!	!	!	!	!	!	!	!	!	!	!	!	!	!	!	!	!	!	!	!	!	!	!	!	!	!LO:LB:g=original	!	!	!	!	!	!
!	!	!	!	!LO:SIC:o=:v:powtórka tt. 35-36 oznaczona znakami repetycji	!	!	!	!	!	!	!	!	!	!	!	!	!	!	!	!	!	!	!	!	!	!	!	!	!	!	!	!	!	!	!	!	!
!	!	!	!	!	!	!	!	!	!	!	!	!	!	!	!	!	!	!	!	!	!	!	!	!	!	!	!	!	!	!	!	!	!	!	!	!LO:N:vis=00	!
4D\	.	4D/	.	8d/Lyy	.	8f#/L	.	2.ryy	8f#\L	-di-	.	4a\	Be-	2.ryy	2.ryy	2.ryy	2.ryy	2.r	4r	.	4r	.	2.r	.	2.r	.	2.r	.	2.r	.	4r	.	4r	.	2.ryy	0.r	.
.	.	.	.	8A/yy	.	8a/	.	.	8d\J	.	.	.	.	.	.	.	.	.	.	.	.	.	.	.	.	.	.	.	.	.	.	.	.	.	.	.	.
4r	.	4r	.	8d/yy	.	8f#/	.	.	4d\	-ctus	.	4f#\	.	.	.	.	.	.	4F#/	.	4d\	.	.	.	.	.	.	.	.	.	4dd\	.	4ff#\	.	.	.	.
.	.	.	.	8A/yy	.	8a/	.	.	.	.	.	.	.	.	.	.	.	.	.	.	.	.	.	.	.	.	.	.	.	.	.	.	.	.	.	.	.
4D\	.	4D/	.	8d/yy	.	8f#/	.	.	4f#\	qui	.	4d\	-ne-	.	.	.	.	.	4d\	.	4f#\	.	.	.	.	.	.	.	.	.	4dd\	.	4ff#\	.	.	.	.
.	.	.	.	8A/Jyy	.	8a/J	.	.	.	.	.	.	.	.	.	.	.	.	.	.	.	.	.	.	.	.	.	.	.	.	.	.	.	.	.	.	.
=38	=38	=38	=38	=38	=38	=38	=38	=38	=38	=38	=38	=38	=38	=38	=38	=38	=38	=38	=38	=38	=38	=38	=38	=38	=38	=38	=38	=38	=38	=38	=38	=38	=38	=38	=38	=38	=38
4E\	.	4E/	.	8e/Lyy	.	8e/L	.	2.ryy	8e\L	ve-	.	8a\L	-di-	2.ryy	2.ryy	2.ryy	2.ryy	2.r	4r	.	4r	.	2.r	.	2.r	.	2.r	.	2.r	.	4r	.	4r	.	2.ryy	.	.
.	.	.	.	8A/yy	.	8a/	.	.	8c#\J	.	.	8e\J	.	.	.	.	.	.	.	.	.	.	.	.	.	.	.	.	.	.	.	.	.	.	.	.	.
4r	.	4r	.	8e/yy	.	8e/	.	.	4.e\	-nit	.	4.cc#\	-ctus	.	.	.	.	.	4e\	.	4e\	.	.	.	.	.	.	.	.	.	4cc#\	.	4ee\	.	.	.	.
.	.	.	.	8A/yy	.	8a/	.	.	.	.	.	.	.	.	.	.	.	.	.	.	.	.	.	.	.	.	.	.	.	.	.	.	.	.	.	.	.
4E\	.	4E/	.	8e/yy	.	8e/	.	.	.	.	.	.	.	.	.	.	.	.	4e\	.	4e\	.	.	.	.	.	.	.	.	.	4cc#\	.	4ee\	.	.	.	.
.	.	.	.	8A/Jyy	.	8a/J	.	.	8c#\	qui	.	8a\	qui	.	.	.	.	.	.	.	.	.	.	.	.	.	.	.	.	.	.	.	.	.	.	.	.
*	*	*	*	*Xtremolo	*	*Xtremolo	*	*	*	*	*	*	*	*	*	*	*	*	*	*	*	*	*	*	*	*	*	*	*	*	*	*	*	*	*	*	*
=39	=39	=39	=39	=39	=39	=39	=39	=39	=39	=39	=39	=39	=39	=39	=39	=39	=39	=39	=39	=39	=39	=39	=39	=39	=39	=39	=39	=39	=39	=39	=39	=39	=39	=39	=39	=39	=39
!	!	!	!	!	!	!	!	!	!	!	!	!	!	!	!	!	!	!	!	!	!	!	!	!	!	!	!	!	!	!	!	!	!LO:LB:g=original	!	!	!	!
*	*	*rep	*	*	*	*	*	*	*	*	*	*	*	*	*	*	*	*	*	*	*	*	*	*	*	*	*	*	*	*	*	*	*	*	*	*	*
4E\	.	4E/	.	8e/L	.	8dd/L	.	2.ryy	4.e\	ve-	.	(4.cc#\	ve-	2.ryy	2.ryy	2.ryy	2.ryy	2.r	4e\	.	4e\	.	2.r	.	2.r	.	2.r	.	2.r	.	4cc#\	.	4ee\	.	2.ryy	.	.
.	.	.	.	8c#/	.	8e/J	.	.	.	.	.	.	.	.	.	.	.	.	.	.	.	.	.	.	.	.	.	.	.	.	.	.	.	.	.	.	.
4r	.	4r	.	8e/	.	8cc#\L	.	.	.	.	.	.	.	.	.	.	.	.	4r	.	4r	.	.	.	.	.	.	.	.	.	4r	.	4r	.	.	.	.
!	!	!	!	!	!	!	!	!	!LO:LB:g=original	!	!	!	!	!	!	!	!	!	!	!	!	!	!	!	!	!	!	!	!	!	!	!	!	!	!	!	!
.	.	.	.	8d/	.	8b\	.	.	8d\	-nit	.	8b\L	-nit	.	.	.	.	.	.	.	.	.	.	.	.	.	.	.	.	.	.	.	.	.	.	.	.
4E\	.	4E/	.	8c#/	.	8a\	.	.	8c#\	.	.	8a\	.	.	.	.	.	.	4r	.	4r	.	.	.	.	.	.	.	.	.	4r	.	4r	.	.	.	.
.	.	.	.	8B/J	.	8g#X\J	.	.	8B\	in	.	8g#X\J)	in	.	.	.	.	.	.	.	.	.	.	.	.	.	.	.	.	.	.	.	.	.	.	.	.
*	*	*Xrep	*	*	*	*	*	*	*	*	*	*	*	*	*	*	*	*	*	*	*	*	*	*	*	*	*	*	*	*	*	*	*	*	*	*	*
=40	=40	=40	=40	=40	=40	=40	=40	=40	=40	=40	=40	=40	=40	=40	=40	=40	=40	=40	=40	=40	=40	=40	=40	=40	=40	=40	=40	=40	=40	=40	=40	=40	=40	=40	=40	=40	=40
*	*	*rep	*	*	*	*	*	*	*	*	*	*	*	*	*	*	*	*	*rep	*	*	*	*	*	*	*	*	*	*	*	*	*	*	*	*	*	*
4E\	.	4E/	.	8c#/L	.	8a/L	.	2.ryy	4.c#\	no-	.	4.a\	no-	2.ryy	2.ryy	2.ryy	2.ryy	2.r	4e\	.	4e\	.	2.r	.	2.r	.	2.r	.	2.r	.	4a\	.	4cc#\	.	2.ryy	.	.
.	.	.	.	8A/	.	8e/	.	.	.	.	.	.	.	.	.	.	.	.	.	.	.	.	.	.	.	.	.	.	.	.	.	.	.	.	.	.	.
4r	.	4r	.	8c#/	.	8a/	.	.	.	.	.	.	.	.	.	.	.	.	4r	.	4r	.	.	.	.	.	.	.	.	.	4r	.	4r	.	.	.	.
.	.	.	.	8B/	.	8g#X/	.	.	8B\	.	.	8g#X\	.	.	.	.	.	.	.	.	.	.	.	.	.	.	.	.	.	.	.	.	.	.	.	.	.
4E\	.	4E/	.	8d/	.	8b/	.	.	8d\	-mi-	.	8b\	-mi-	.	.	.	.	.	4r	.	4r	.	.	.	.	.	.	.	.	.	4r	.	4r	.	.	.	.
.	.	.	.	8c#/J	.	8a/J	.	.	8c#\	-ne	.	8a\	-ne	.	.	.	.	.	.	.	.	.	.	.	.	.	.	.	.	.	.	.	.	.	.	.	.
*	*	*Xrep	*	*	*	*	*	*	*	*	*	*	*	*	*	*	*	*	*Xrep	*	*	*	*	*	*	*	*	*	*	*	*	*	*	*	*	*	*
=41	=41	=41	=41	=41	=41	=41	=41	=41	=41	=41	=41	=41	=41	=41	=41	=41	=41	=41	=41	=41	=41	=41	=41	=41	=41	=41	=41	=41	=41	=41	=41	=41	=41	=41	=41	=41	=41
*	*	*rep	*	*	*	*	*	*	*	*	*	*	*	*	*	*	*	*	*	*	*	*	*	*	*	*	*	*	*	*	*	*	*	*	*	*	*
!	!	!	!	!	!	!	!	!	!	!	!	!	!	!	!	!	!	!	!	!	!	!	!	!	!	!	!	!	!	!	!	!	!	!	!	!LO:N:vis=00	!
4E\	.	4E/	.	8r	.	8r	.	2.ryy	2B\	Do-	.	2a\	Do-	2.ryy	2.ryy	2.ryy	2.ryy	2.r	4r	.	4r	.	2.r	.	2.r	.	2.r	.	2.r	.	4r	.	4r	.	2.ryy	0.r	.
.	.	.	.	8B/	.	8a\L	.	.	.	.	.	.	.	.	.	.	.	.	.	.	.	.	.	.	.	.	.	.	.	.	.	.	.	.	.	.	.
*	*	*	*	*tremolo	*	*	*	*	*	*	*	*	*	*	*	*	*	*	*	*	*	*	*	*	*	*	*	*	*	*	*	*	*	*	*	*	*
4r	.	4r	.	8B/L	.	8a\	.	.	.	.	.	.	.	.	.	.	.	.	4e\	.	4e\	.	.	.	.	.	.	.	.	.	4a/	.	4b/	.	.	.	.
.	.	.	.	8B/	.	8a\J	.	.	.	.	.	.	.	.	.	.	.	.	.	.	.	.	.	.	.	.	.	.	.	.	.	.	.	.	.	.	.
4E\	.	4E/	.	8B/	.	8g#X\L	.	.	8e\L	-mi-	.	4g#X\	-mi-	.	.	.	.	.	4e\	.	4e\	.	.	.	.	.	.	.	.	.	4g#X/	.	4b/	.	.	.	.
.	.	.	.	8B/J	.	8g#\J	.	.	8d\J	.	.	.	.	.	.	.	.	.	.	.	.	.	.	.	.	.	.	.	.	.	.	.	.	.	.	.	.
*	*	*Xrep	*	*Xtremolo	*	*	*	*	*	*	*	*	*	*	*	*	*	*	*	*	*	*	*	*	*	*	*	*	*	*	*	*	*	*	*	*	*
=42	=42	=42	=42	=42	=42	=42	=42	=42	=42	=42	=42	=42	=42	=42	=42	=42	=42	=42	=42	=42	=42	=42	=42	=42	=42	=42	=42	=42	=42	=42	=42	=42	=42	=42	=42	=42	=42
!LO:LB:g=original	!	!LO:PB:g=original	!	!	!	!LO:LB:g=original	!	!	!	!	!	!LO:LB:g=original	!	!	!	!	!	!	!LO:LB:g=original	!	!	!	!	!	!	!	!	!	!	!	!	!	!	!	!	!	!
*	*	*	*	*	*	*	*	*	*	*	*	*	*	*	*	*	*	*	*	*	*	*	*	*	*	*	*	*	*	*	*	*	*2\right	*	*	*	*
4AA/	.	4A/	.	8r	.	8r	.	2.ryy	2c#\	-ni	.	2a\	-ni	2.ryy	2.ryy	2.ryy	2.ryy	2.r	2A/	.	2e\	.	2.r	.	2.r	.	2.r	.	2.r	.	2a/	.	2a\	.	2.ryy	.	.
.	.	.	.	8c#/	.	8a\L	.	.	.	.	.	.	.	.	.	.	.	.	.	.	.	.	.	.	.	.	.	.	.	.	.	.	.	.	.	.	.
4AA/	.	4A/	.	8c#/L	.	8a\	.	.	.	.	.	.	.	.	.	.	.	.	.	.	.	.	.	.	.	.	.	.	.	.	.	.	.	.	.	.	.
.	.	.	.	8c#/	.	8a\J	.	.	.	.	.	.	.	.	.	.	.	.	.	.	.	.	.	.	.	.	.	.	.	.	.	.	.	.	.	.	.
!	!	!	!	!	!	!LO:TX:a:i:t=a	!	!	!	!	!	!	!	!	!	!	!	!	!	!	!	!	!	!	!	!	!	!	!	!	!	!	!	!	!	!	!
4AA/	.	4A/	.	8c#/	.	8a\L	.	.	8c#\L	in	.	8a\L	no-	.	.	.	.	.	4r	.	4r	.	.	.	.	.	.	.	.	.	4r	.	4r	.	.	.	.
.	.	.	.	8d/J	.	8b\J	.	.	8d\J	.	.	8b\J	.	.	.	.	.	.	.	.	.	.	.	.	.	.	.	.	.	.	.	.	.	.	.	.	.
=43	=43	=43	=43	=43	=43	=43	=43	=43	=43	=43	=43	=43	=43	=43	=43	=43	=43	=43	=43	=43	=43	=43	=43	=43	=43	=43	=43	=43	=43	=43	=43	=43	=43	=43	=43	=43	=43
!	!	!	!	!	!	!	!	!	!LO:PB:g=original	!	!	!	!	!	!	!	!	!	!	!	!LO:LB:g=original	!	!	!	!	!	!	!	!	!	!	!	!	!	!	!	!
*	*	*rep	*	*	*	*	*	*	*	*	*	*	*	*	*	*	*	*	*	*	*	*	*	*	*	*	*	*	*	*	*	*	*	*	*	*	*
4AA/	.	4A/	.	8r	.	8r	.	2.ryy	(4.e\	no-	.	4.cc#\	-mi-	2.ryy	2.ryy	2.ryy	2.ryy	2.r	4A/	.	4e\	.	2.r	.	2.r	.	2.r	.	2.r	.	4a/	.	4cc#\	.	2.ryy	.	.
.	.	.	.	8e/L	.	(8cc#\L	.	.	.	.	.	.	.	.	.	.	.	.	.	.	.	.	.	.	.	.	.	.	.	.	.	.	.	.	.	.	.
4AA/	.	4A/	.	8e/	.	8cc#\	.	.	.	.	.	.	.	.	.	.	.	.	4r	.	4r	.	.	.	.	.	.	.	.	.	4r	.	4r	.	.	.	.
.	.	.	.	8d#X/	.	8b#X\	.	.	8d#X\)	-mi-	.	8b#X\	.	.	.	.	.	.	.	.	.	.	.	.	.	.	.	.	.	.	.	.	.	.	.	.	.
4AA/	.	4A/	.	8e/	.	8cc#\	.	.	8e\	-ne	.	8cc#\	-ne	.	.	.	.	.	4r	.	4r	.	.	.	.	.	.	.	.	.	4r	.	4r	.	.	.	.
.	.	.	.	8f#/J	.	8dd\J)	.	.	8f#\	.	.	8dd\	.	.	.	.	.	.	.	.	.	.	.	.	.	.	.	.	.	.	.	.	.	.	.	.	.
*	*	*Xrep	*	*	*	*	*	*	*	*	*	*	*	*	*	*	*	*	*	*	*	*	*	*	*	*	*	*	*	*	*	*	*	*	*	*	*
=44	=44	=44	=44	=44	=44	=44	=44	=44	=44	=44	=44	=44	=44	=44	=44	=44	=44	=44	=44	=44	=44	=44	=44	=44	=44	=44	=44	=44	=44	=44	=44	=44	=44	=44	=44	=44	=44
*	*	*rep	*	*	*	*	*	*	*	*	*	*	*	*	*	*	*	*	*	*	*	*	*	*	*	*	*	*	*	*	*	*	*	*	*	*	*
4AA/	.	4A/	.	8r	.	8r	.	2.ryy	2gn\	Do-	.	2ee\	Do-	2.ryy	2.ryy	2.ryy	2.ryy	2.r	4A/	.	4e\	.	2.r	.	2.r	.	2.r	.	2.r	.	4cc#\	.	4ee\	.	2.ryy	.	.
.	.	.	.	8g/L	.	(8ee\L	.	.	.	.	.	.	.	.	.	.	.	.	.	.	.	.	.	.	.	.	.	.	.	.	.	.	.	.	.	.	.
4AA/	.	4A/	.	8g/	.	8ee\	.	.	.	.	.	.	.	.	.	.	.	.	4r	.	4r	.	.	.	.	.	.	.	.	.	4r	.	4r	.	.	.	.
.	.	.	.	8g/	.	8ee\	.	.	.	.	.	.	.	.	.	.	.	.	.	.	.	.	.	.	.	.	.	.	.	.	.	.	.	.	.	.	.
!	!	!	!	!	!	!	!	!	!	!	!	!	!	!	!	!	!	!	!	!	!LO:N:vis=2	!	!	!	!	!	!	!	!	!	!	!	!	!	!	!	!
*	*	*	*	*	*	*	*	*	*	*	*	*	*	*	*	*	*	*	*	*	*	*	*	*	*	*	*	*	*	*	*8\right	*	*	*	*	*	*
4AA/	.	4A/	.	8f#/	.	8dd#X\	.	.	8f#\L	-mi-	.	8dd#X\L	-mi-	.	.	.	.	.	4AA/	.	4A/	.	.	.	.	.	.	.	.	.	8dd#X\L	.	8ff#\L	.	.	.	.
.	.	.	.	8g/J	.	8ee\J)	.	.	8g\J	.	.	8ee\J	.	.	.	.	.	.	.	.	.	.	.	.	.	.	.	.	.	.	8ee\J	.	8gg\J	.	.	.	.
*	*	*Xrep	*	*	*	*	*	*	*	*	*	*	*	*	*	*	*	*	*	*	*	*	*	*	*	*	*	*	*	*	*	*	*	*	*	*	*
=45	=45	=45	=45	=45	=45	=45	=45	=45	=45	=45	=45	=45	=45	=45	=45	=45	=45	=45	=45	=45	=45	=45	=45	=45	=45	=45	=45	=45	=45	=45	=45	=45	=45	=45	=45	=45	=45
!	!	!	!	!LO:LB:g=original	!	!	!	!	!	!	!	!	!	!	!	!	!	!	!	!	!	!	!	!	!	!	!	!	!	!	!	!LO:LB:g=original	!	!	!	!	!
*	*	*	*	*	*	*	*	*	*	*	*	*	*	*	*	*	*	*	*	*	*	*	*	*	*	*	*^	*	*	*	*	*	*	*	*	*	*
!	!	!	!	!	!	!	!	!	!	!	!	!	!	!	!	!	!	!	!	!	!	!	!	!	!	!	!LO:SIC:o:s=:v:niejednoznaczny zapis nad pauzą - dynamika?	!	!	!	!	!	!	!	!	!	!	!
!	!	!	!	!	!	!	!	!	!	!	!	!	!	!	!	!	!	!	!	!	!	!	!	!	!	!	!LO:SIC:o:s=:v:niejednoznaczny zapis pauz w 2 warstwie w tt. 45-47	!	!	!	!	!	!	!	!	!	!	!
!	!	!	!	!	!	!	!	!	!	!	!	!	!	!	!	!	!	!	!	!	!	!	!	!	!	!	!LO:N:vis=8	!	!	!LO:N:vis=8	!	!	!	!	!	!	!LO:N:vis=0	!
*	*	*	*	*	*	*	*	*	*	*	*	*	*	*	*	*	*	*	*	*	*	*	*8\right	*	*	*	*	*	*	*	*	*2\right	*	*	*	*	*	*
2AA/	.	2A/	.	2c#/ 2e/	.	8r	.	2.ryy	2e\	-ne	.	2cc#\	-ni	2.ryy	2.ryy	2.ryy	2.ryy	2.r	2AA/	.	2A/	.	8r	.	8r	.	4rc	2.rc	.	4r	p	2cc#\	.	2ee\	.	2.ryy	1.r	.
.	.	.	.	.	.	(8a\L	.	.	.	.	.	.	.	.	.	.	.	.	.	.	.	.	8A\L	p	8A\L	.	.	.	.	.	.	.	.	.	.	.	.	.
*	*	*	*	*	*	*	*	*	*	*	*	*	*	*	*	*	*	*	*	*	*	*	*	*	*	*	*8\right	*	*	*8\right	*	*	*	*	*	*	*	*
.	.	.	.	.	.	8b\	.	.	.	.	.	.	.	.	.	.	.	.	.	.	.	.	8B\	.	8B\	.	8a\L	.	.	8a\L	.	.	.	.	.	.	.	.
.	.	.	.	.	.	8a\	.	.	.	.	.	.	.	.	.	.	.	.	.	.	.	.	8A\	.	8A\	.	8b\	.	.	8b\	.	.	.	.	.	.	.	.
4r	.	4r	.	4r	.	8g#X\	.	.	4r	.	.	4r	.	.	.	.	.	.	4r	.	4r	.	8G#X\	.	8G#X\	.	8a\	.	.	8a\	.	4r	.	4r	.	.	.	.
.	.	.	.	.	.	8a\J)	.	.	.	.	.	.	.	.	.	.	.	.	.	.	.	.	8A\J	.	8A\J	.	8g#\J	.	.	8g#\J	.	.	.	.	.	.	.	.
=46	=46	=46	=46	=46	=46	=46	=46	=46	=46	=46	=46	=46	=46	=46	=46	=46	=46	=46	=46	=46	=46	=46	=46	=46	=46	=46	=46	=46	=46	=46	=46	=46	=46	=46	=46	=46	=46	=46
!	!	!	!	!	!	!	!	!	!	!	!	!	!	!	!	!	!	!	!	!	!	!	!	!	!LO:LB:g=original	!	!	!	!	!	!	!	!	!	!	!	!	!
!	!	!LO:SIC:o:s=:v:4A	!	!LO:SIC:o=:v:znak początku repetycji	!	!	!	!	!	!	!	!LO:TX:a:i:t=1	!	!	!	!	!	!	!	!	!	!	!	!	!	!	!	!	!	!	!	!	!	!	!	!	!	!
*	*	*	*	*tremolo	*	*tremolo	*	*	*	*	*	*	*	*	*	*	*	*	*	*	*	*	*2\right	*	*2\right	*	*4\right	*	*	*4\right	*	*	*	*	*	*	*	*
4AA/	.	4G/	.	8e/L	.	8gn/L	.	2.ryy	4e\	Be-	.	2.r	.	2.ryy	2.ryy	2.ryy	2.ryy	2.r	4r	.	4r	.	[2.A\	.	2.A\	.	4ee\	2.re	.	(4ee\	.	4r	.	4r	.	2.ryy	.	.
.	.	.	.	8A/	.	8a/	.	.	.	.	.	.	.	.	.	.	.	.	.	.	.	.	.	.	.	.	.	.	.	.	.	.	.	.	.	.	.	.
4r	.	4r	.	8e/	.	8g/	.	.	4c#\	.	.	.	.	.	.	.	.	.	4A/	.	4e\	.	.	.	.	.	4cc#\	.	.	4cc#\	.	4cc#\	.	4ee\	.	.	.	.
.	.	.	.	8A/	.	8a/	.	.	.	.	.	.	.	.	.	.	.	.	.	.	.	.	.	.	.	.	.	.	.	.	.	.	.	.	.	.	.	.
!	!	!LO:SIC:o:s=:v:4A	!	!	!	!	!	!	!	!	!	!	!	!	!	!	!	!	!	!	!	!	!	!	!	!	!	!	!	!	!	!	!	!	!	!	!	!
4AA/	.	4G/	.	8e/	.	8g/	.	.	4A\	-ne-	.	.	.	.	.	.	.	.	4r	.	4r	.	.	.	.	.	4a\	.	.	4a\)	.	4r	.	4r	.	.	.	.
.	.	.	.	8A/J	.	8a/J	.	.	.	.	.	.	.	.	.	.	.	.	.	.	.	.	.	.	.	.	.	.	.	.	.	.	.	.	.	.	.	.
=47	=47	=47	=47	=47	=47	=47	=47	=47	=47	=47	=47	=47	=47	=47	=47	=47	=47	=47	=47	=47	=47	=47	=47	=47	=47	=47	=47	=47	=47	=47	=47	=47	=47	=47	=47	=47	=47	=47
!	!	!	!	!	!	!	!	!	!	!	!	!	!	!	!	!	!	!	!	!	!	!	!	!	!	!	!	!	!	!LO:PB:g=original	!	!	!	!LO:LB:g=original	!	!	!	!
!	!	!LO:SIC:o:s=:v:4A	!	!	!	!	!	!	!	!	!	!	!	!	!	!	!	!	!	!	!	!	!	!	!	!	!	!	!	!	!	!	!	!	!	!	!	!
*	*	*rep	*	*	*	*	*	*	*	*	*	*	*	*	*	*	*	*	*	*	*	*	*	*	*	*	*	*	*	*	*	*	*	*	*	*	*	*
4AA/	.	4G/	.	8d/L	.	8f#/L	.	2.ryy	8f#\L	-di-	.	4a\	Be-	2.ryy	2.ryy	2.ryy	2.ryy	2.r	4r	.	4r	.	2.A\_	.	2.A\	.	8ff#\L	2.re	.	(8ff#\L	.	4r	.	4r	.	2.ryy	4aa\	.
.	.	.	.	8A/	.	8a/	.	.	8d\J	.	.	.	.	.	.	.	.	.	.	.	.	.	.	.	.	.	8dd\J	.	.	8dd\J)	.	.	.	.	.	.	.	.
4r	.	4r	.	8d/	.	8f#/	.	.	4d\	-ctus	.	4f#\	.	.	.	.	.	.	4F#/	.	4d\	.	.	.	.	.	4dd\	.	.	4dd\	.	4dd\	.	4ff#\	.	.	4ff#\	.
.	.	.	.	8A/	.	8a/	.	.	.	.	.	.	.	.	.	.	.	.	.	.	.	.	.	.	.	.	.	.	.	.	.	.	.	.	.	.	.	.
!	!	!LO:SIC:o:s=:v:4A	!	!	!	!	!	!	!	!	!	!	!	!	!	!	!	!	!	!	!	!	!	!	!	!	!	!	!	!	!	!	!	!	!	!	!	!
4AA/	.	4G/	.	8d/	.	8f#/	.	.	4r	.	.	4d\	-ne-	.	.	.	.	.	4r	.	4r	.	.	.	.	.	4rc	.	.	4r	.	4r	.	4r	.	.	4dd\	.
.	.	.	.	8A/J	.	8a/J	.	.	.	.	.	.	.	.	.	.	.	.	.	.	.	.	.	.	.	.	.	.	.	.	.	.	.	.	.	.	.	.
!	!	!	!	!LO:SIC:o=:v:znak zakończenia repetycji	!	!	!	!	!	!	!	!	!	!	!	!	!	!	!	!	!	!	!	!	!	!	!	!	!	!	!	!	!	!	!	!	!	!
*	*	*Xrep	*	*	*	*	*	*	*	*	*	*	*	*	*	*	*	*	*	*	*	*	*	*	*	*	*	*	*	*	*	*	*	*	*	*	*	*
*	*	*	*	*	*	*	*	*	*	*	*	*	*	*	*	*	*	*	*	*	*	*	*	*	*	*	*v	*v	*	*	*	*	*	*	*	*	*	*
=48	=48	=48	=48	=48	=48	=48	=48	=48	=48	=48	=48	=48	=48	=48	=48	=48	=48	=48	=48	=48	=48	=48	=48	=48	=48	=48	=48	=48	=48	=48	=48	=48	=48	=48	=48	=48	=48
!	!	!LO:SIC:o:s=:v:4A	!	!	!	!	!	!	!	!	!	!	!	!	!	!	!	!	!	!	!	!	!	!	!	!	!LO:LB:g=original	!	!	!	!	!	!	!	!	!	!
!	!	!	!	!LO:SIC:o=:v:powtórka tt. 46-47 oznaczona znakami repetycji	!	!	!	!	!	!	!	!	!	!	!	!	!	!	!	!	!	!	!	!	!	!	!LO:TX:a:i:t=15.	!	!	!	!	!	!	!	!	!	!
*	*	*rep	*	*	*	*	*	*	*	*	*	*	*	*	*	*	*	*	*	*	*	*	*	*	*	*	*	*	*	*	*	*	*	*	*	*	*
!	!	!	!	!	!	!	!	!	!	!	!	!	!	!	!	!	!	!	!	!	!	!	!	!	!	!	!LO:N:vis=00	!	!	!	!	!	!	!	!	!	!
4AA/	.	4G/	.	8e/Lyy	.	8g/L	.	2.ryy	4e\	Be-	.	8a\L	-di-	2.ryy	2.ryy	2.ryy	2.ryy	2.r	4r	.	4r	.	2.A\]	.	2.A\	.	0.r	.	4ee\	.	4r	.	4r	.	2.ryy	8aa\L	.
.	.	.	.	8A/yy	.	8a/	.	.	.	.	.	8g\J	.	.	.	.	.	.	.	.	.	.	.	.	.	.	.	.	.	.	.	.	.	.	.	8gg\J	.
4r	.	4r	.	8e/yy	.	8g/	.	.	4c#\	.	.	4e\	-ctus	.	.	.	.	.	4A/	.	4e\	.	.	.	.	.	.	.	4cc#\	.	4cc#\	.	4ee\	.	.	4ee\	.
.	.	.	.	8A/yy	.	8a/	.	.	.	.	.	.	.	.	.	.	.	.	.	.	.	.	.	.	.	.	.	.	.	.	.	.	.	.	.	.	.
!	!	!LO:SIC:o:s=:v:4A	!	!	!	!	!	!	!	!	!	!	!	!	!	!	!	!	!	!	!	!	!	!	!	!	!	!	!	!	!	!	!	!	!	!	!
4AA/	.	4G/	.	8e/yy	.	8g/	.	.	4A\	-ne-	.	4r	.	.	.	.	.	.	4r	.	4r	.	.	.	.	.	.	.	4a\	.	4r	.	4r	.	.	4r	.
.	.	.	.	8A/Jyy	.	8a/J	.	.	.	.	.	.	.	.	.	.	.	.	.	.	.	.	.	.	.	.	.	.	.	.	.	.	.	.	.	.	.
*	*	*Xrep	*	*	*	*	*	*	*	*	*	*	*	*	*	*	*	*	*	*	*	*	*	*	*	*	*	*	*	*	*	*	*	*	*	*	*
=49	=49	=49	=49	=49	=49	=49	=49	=49	=49	=49	=49	=49	=49	=49	=49	=49	=49	=49	=49	=49	=49	=49	=49	=49	=49	=49	=49	=49	=49	=49	=49	=49	=49	=49	=49	=49	=49
!	!	!	!	!	!	!LO:LB:g=original	!	!	!LO:LB:g=original	!	!	!LO:LB:g=original	!	!	!	!	!	!	!	!	!	!	!	!	!	!	!	!	!	!	!	!	!	!	!	!	!
4D\	.	4d\	.	8d/Lyy	.	8f#/L	.	2.ryy	8f#\L	-di-	.	4a\	Be-	2.ryy	2.ryy	2.ryy	2.ryy	2.r	4r	.	4r	.	2.D\	.	2.D\	.	.	.	(8ff#\L	.	4r	.	4r	.	2.ryy	4aa\	.
.	.	.	.	8A/yy	.	8a/	.	.	8d\J	.	.	.	.	.	.	.	.	.	.	.	.	.	.	.	.	.	.	.	8dd\J)	.	.	.	.	.	.	.	.
4r	.	4r	.	8d/yy	.	8f#/	.	.	4d\	-ctus	.	4f#\	.	.	.	.	.	.	4F#/	.	4d\	.	.	.	.	.	.	.	4dd\	.	4dd\	.	4ff#\	.	.	4ff#\	.
.	.	.	.	8A/yy	.	8a/	.	.	.	.	.	.	.	.	.	.	.	.	.	.	.	.	.	.	.	.	.	.	.	.	.	.	.	.	.	.	.
!	!	!	!	!	!	!	!	!	!	!	!	!	!	!	!	!	!	!	!	!	!	!	!	!	!	!	!	!	!	!	!	!	!	!	!	!LO:SI:o=:v:niejednoznaczny zapis łuku	!
4D\	.	4d\	.	8d/	.	8f#/	.	.	4f#\	qui	.	4d\	-ne-	.	.	.	.	.	4F#/	.	[4d\	.	.	.	.	.	.	.	4r	.	4dd\	.	4ff#\	.	.	(4dd\	.
.	.	.	.	8A/Jyy	.	8a/J	.	.	.	.	.	.	.	.	.	.	.	.	.	.	.	.	.	.	.	.	.	.	.	.	.	.	.	.	.	.	.
*	*	*	*	*Xtremolo	*	*Xtremolo	*	*	*	*	*	*	*	*	*	*	*	*	*	*	*	*	*	*	*	*	*	*	*	*	*	*	*	*	*	*	*
=50	=50	=50	=50	=50	=50	=50	=50	=50	=50	=50	=50	=50	=50	=50	=50	=50	=50	=50	=50	=50	=50	=50	=50	=50	=50	=50	=50	=50	=50	=50	=50	=50	=50	=50	=50	=50	=50
!LO:LB:g=original	!	!LO:LB:g=original	!	!	!	!	!	!	!	!	!	!	!	!	!	!	!	!	!LO:LB:g=original	!	!LO:LB:g=original	!	!	!	!	!	!	!	!	!	!	!	!	!	!	!	!
!	!	!	!	!	!	!	!	!	!	!	!	!	!	!	!	!	!	!	!	!	!LO:N:vis=8	!	!	!	!	!	!	!	!	!	!	!	!	!	!	!	!
4GG/	.	2G/	.	8g/L	.	8b\L	.	2.ryy	8g\L	ve-	.	8b\L	-di-	2.ryy	2.ryy	2.ryy	2.ryy	2.r	4D/	.	4d\]	.	2GG/	.	2GG/	.	.	.	8.gg\L	.	4b\	.	4gg\	.	2.ryy	8bb\L	.
.	.	.	.	8f#/J	.	8a\J	.	.	8f#\J	.	.	8a\J	.	.	.	.	.	.	.	.	.	.	.	.	.	.	.	.	.	.	.	.	.	.	.	8aa\J)	.
.	.	.	.	.	.	.	.	.	.	.	.	.	.	.	.	.	.	.	.	.	.	.	.	.	.	.	.	.	16ff#\Jk	.	.	.	.	.	.	.	.
4r	.	.	.	8r	.	8r	.	.	4.e\	-nit	.	4.g\	-ctus	.	.	.	.	.	4r	.	4r	.	.	.	.	.	.	.	4.ee\	.	4r	.	4r	.	.	4.gg\	.
.	.	.	.	8e/L	.	8g/L	.	.	.	.	.	.	.	.	.	.	.	.	.	.	.	.	.	.	.	.	.	.	.	.	.	.	.	.	.	.	.
!LO:N:vis=4	!	!	!	!	!	!	!	!	!	!	!	!	!	!	!	!	!	!	!	!	!	!	!	!	!	!	!	!	!	!	!	!	!	!	!	!	!
8GG/	.	8G/L	.	8e/	.	8g/	.	.	.	.	.	.	.	.	.	.	.	.	4r	.	4r	.	8GG/L	.	8GG/L	.	.	.	.	.	4r	.	4r	.	.	.	.
!LO:N:vis=4	!	!	!	!	!	!	!	!	!	!	!	!	!	!	!	!	!	!	!	!	!	!	!	!	!	!	!	!	!	!	!	!	!	!	!	!	!
8GG#X/	.	8G#X/J	.	8d/J	.	8f#/J	.	.	8d\	qui	.	8f#\	qui	.	.	.	.	.	.	.	.	.	8GG#X/J	.	8GG#X/J	.	.	.	8dd\	.	.	.	.	.	.	(8ff#\	.
=51	=51	=51	=51	=51	=51	=51	=51	=51	=51	=51	=51	=51	=51	=51	=51	=51	=51	=51	=51	=51	=51	=51	=51	=51	=51	=51	=51	=51	=51	=51	=51	=51	=51	=51	=51	=51	=51
!	!	!	!	!	!	!	!	!	!	!	!	!LO:SI:o=:v:niejednoznaczny zapis łuku	!	!	!	!	!	!	!	!	!	!	!	!	!	!	!	!	!	!	!LO:TX:a:i:t=2	!	!LO:TX:a:i:t=2	!	!	!	!
!	!	!	!	!	!	!	!	!	!	!	!	!	!	!	!	!	!	!	!	!	!	!	!	!	!	!	!	!	!	!	!LO:N:vis=0	!	!LO:N:vis=0	!	!	!	!
2.AA/	.	2.A^/	.	8c#/L	.	8e/L	.	2.ryy	4.c#\	ve-	.	(4.e\	ve-	2.ryy	2.ryy	2.ryy	2.ryy	2.r	4A/	.	4e\	.	2AA/	.	2AA/	.	.	.	4cc#\	.	1.r	.	1.r	.	2.ryy	4ee\)	.
.	.	.	.	8A/	.	8A/	.	.	.	.	.	.	.	.	.	.	.	.	.	.	.	.	.	.	.	.	.	.	.	.	.	.	.	.	.	.	.
.	.	.	.	8c#/	.	8e/	.	.	.	.	.	.	.	.	.	.	.	.	4r	.	4r	.	.	.	.	.	.	.	4r	.	.	.	.	.	.	4r	.
.	.	.	.	8d/	.	8f#/	.	.	8d\	-nit	.	8f#\	.	.	.	.	.	.	.	.	.	.	.	.	.	.	.	.	.	.	.	.	.	.	.	.	.
.	.	.	.	8e/	.	8g/	.	.	8e\	.	.	8g\)	-nit	.	.	.	.	.	4r	.	4r	.	4r	.	4r	.	.	.	4r	.	.	.	.	.	.	4r	.
.	.	.	.	8f#/J	.	8a/J	.	.	8f#\	in	.	8a\	in	.	.	.	.	.	.	.	.	.	.	.	.	.	.	.	.	.	.	.	.	.	.	.	.
=52	=52	=52	=52	=52	=52	=52	=52	=52	=52	=52	=52	=52	=52	=52	=52	=52	=52	=52	=52	=52	=52	=52	=52	=52	=52	=52	=52	=52	=52	=52	=52	=52	=52	=52	=52	=52	=52
!	!	!	!	!	!	!	!	!	!	!	!	!	!	!	!	!	!	!	!	!	!	!	!	!	!	!	!	!	!	!	!	!	!	!	!	!LO:LB:g=original	!
!	!	!	!	!	!	!LO:SIC:o=:v:septola lub błędny zapis	!	!	!	!	!	!LO:SI:o=:v:niejednoznaczny zapis łuku	!	!	!	!	!	!	!	!	!	!	!	!	!	!	!	!	!	!	!	!	!	!	!	!	!
*	*	*	*	*	*	*Xtuplet	*	*	*	*	*	*	*	*	*	*	*	*	*	*	*	*	*	*	*	*	*	*	*	*	*	*	*	*	*	*	*
!	!	!	!	!	!	!	!	!	!	!	!	!	!	!	!	!	!	!	!	!	!	!	!	!	!	!	!LO:N:vis=00	!	!	!	!	!	!	!	!	!	!
4D\	.	4d\	.	8d/L	.	28%3f#/L	.	2.ryy	4.d\	no-	.	(4.f#\	no-	2.ryy	2.ryy	2.ryy	2.ryy	2.r	4F#/	.	4d\	.	2.r	.	2.r	.	0.r	.	4dd\	.	.	.	.	.	2.ryy	4ff#\	.
.	.	.	.	.	.	28%3d/	.	.	.	.	.	.	.	.	.	.	.	.	.	.	.	.	.	.	.	.	.	.	.	.	.	.	.	.	.	.	.
.	.	.	.	8A/	.	.	.	.	.	.	.	.	.	.	.	.	.	.	.	.	.	.	.	.	.	.	.	.	.	.	.	.	.	.	.	.	.
.	.	.	.	.	.	28%3e/	.	.	.	.	.	.	.	.	.	.	.	.	.	.	.	.	.	.	.	.	.	.	.	.	.	.	.	.	.	.	.
4.D\	.	4.d\	.	8d/	.	.	.	.	.	.	.	.	.	.	.	.	.	.	4r	.	4r	.	.	.	.	.	.	.	4r	.	.	.	.	.	.	4r	.
.	.	.	.	.	.	28%3f#/	.	.	.	.	.	.	.	.	.	.	.	.	.	.	.	.	.	.	.	.	.	.	.	.	.	.	.	.	.	.	.
.	.	.	.	8e/	.	.	.	.	8e\	.	.	8g\	.	.	.	.	.	.	.	.	.	.	.	.	.	.	.	.	.	.	.	.	.	.	.	.	.
.	.	.	.	.	.	28%3g/	.	.	.	.	.	.	.	.	.	.	.	.	.	.	.	.	.	.	.	.	.	.	.	.	.	.	.	.	.	.	.
.	.	.	.	8f#/	.	.	.	.	8f#\	-mi-	.	8a\)	-mi-	.	.	.	.	.	4r	.	4r	.	.	.	.	.	.	.	4r	.	.	.	.	.	.	4r	.
.	.	.	.	.	.	28%3a/	.	.	.	.	.	.	.	.	.	.	.	.	.	.	.	.	.	.	.	.	.	.	.	.	.	.	.	.	.	.	.
8GG/	.	8G/	.	8g/J	.	.	.	.	8g\	-ne	.	8b\	-ne	.	.	.	.	.	.	.	.	.	.	.	.	.	.	.	.	.	.	.	.	.	.	.	.
.	.	.	.	.	.	28%3b/J	.	.	.	.	.	.	.	.	.	.	.	.	.	.	.	.	.	.	.	.	.	.	.	.	.	.	.	.	.	.	.
=53	=53	=53	=53	=53	=53	=53	=53	=53	=53	=53	=53	=53	=53	=53	=53	=53	=53	=53	=53	=53	=53	=53	=53	=53	=53	=53	=53	=53	=53	=53	=53	=53	=53	=53	=53	=53	=53
!	!	!	!	!	!	!	!	!	!	!	!	!	!	!	!	!	!	!	!	!	!	!	!LO:LB:g=original	!	!	!	!	!	!	!	!	!	!	!	!	!	!
4AA/	.	4A/	.	8r	.	8r	.	2.ryy	2f#\	Do-	.	2a\	Do-	2.ryy	2.ryy	2.ryy	2.ryy	2.r	4r	.	4r	.	4r	.	4r	.	.	.	4r	.	4r	.	4r	.	2.ryy	4r	.
*	*	*	*	*tremolo	*	*	*	*	*	*	*	*	*	*	*	*	*	*	*	*	*	*	*	*	*	*	*	*	*	*	*	*	*	*	*	*	*
.	.	.	.	8f#/L	.	8a\L	.	.	.	.	.	.	.	.	.	.	.	.	.	.	.	.	.	.	.	.	.	.	.	.	.	.	.	.	.	.	.
4AA/	.	4A/	.	8f#/	.	8a\	.	.	.	.	.	.	.	.	.	.	.	.	4d\	.	4f#\	.	4AA/	.	4AA/	.	.	.	4r	.	4dd\	.	4ff#\	.	.	4r	.
.	.	.	.	8f#/J	.	8a\J	.	.	.	.	.	.	.	.	.	.	.	.	.	.	.	.	.	.	.	.	.	.	.	.	.	.	.	.	.	.	.
*	*	*	*	*Xtremolo	*	*	*	*	*	*	*	*	*	*	*	*	*	*	*	*	*	*	*	*	*	*	*	*	*	*	*	*	*8\right	*	*	*	*
!	!	!	!	!	!	!	!	!	!	!	!	!	!	!	!	!	!	!	!	!	!	!	!	!	!	!	!	!	!	!	!	!	!	!	!	!LO:SI:o=:v:niejednoznaczny zapis łuku	!
4AA/	.	4A/	.	8g/L	.	8cc#\L	.	.	8e\L	-mi-	.	8g\L	-mi-	.	.	.	.	.	8A/L	.	8e\L	.	4AA/	.	4AA/	.	.	.	4a\	.	8cc#\L	.	8ee\L	.	.	(4aa\	.
.	.	.	.	8f#/J	.	8dd\J	.	.	8f#\J	.	.	8a\J	.	.	.	.	.	.	8F#/J	.	8d\J	.	.	.	.	.	.	.	.	.	8dd\J	.	8ff#\J	.	.	.	.
!	!	!	!	!	!	!LO:TX:b:i:t=Verte	!	!	!	!	!	!	!	!	!	!	!	!	!	!	!	!	!	!	!	!	!	!	!	!	!	!	!	!	!	!	!
=54	=54	=54	=54	=54	=54	=54	=54	=54	=54	=54	=54	=54	=54	=54	=54	=54	=54	=54	=54	=54	=54	=54	=54	=54	=54	=54	=54	=54	=54	=54	=54	=54	=54	=54	=54	=54	=54
!	!	!	!	!	!	!LO:PB:g=original	!	!	!	!	!	!	!	!	!	!	!	!	!	!	!	!	!	!	!	!	!	!	!LO:LB:g=original	!	!LO:LB:g=original	!	!	!	!	!	!
*	*	*	*	*	*	*tremolo	*	*	*	*	*	*	*	*	*	*	*	*	*	*	*	*	*	*	*	*	*	*	*	*	*	*	*	*	*	*	*
*	*	*	*	*tremolo	*	*2\right	*	*	*	*	*	*	*	*	*	*	*	*	*	*	*	*	*	*	*	*	*	*	*	*	*	*	*	*	*	*	*
!	!	!LO:SIC:o=:v:nieczytelny znak	!	!	!	!	!	!	!	!	!	!	!	!	!	!	!	!	!	!	!	!	!	!	!	!	!	!	!	!	!	!	!	!	!	!	!
4D\	.	4d\	.	8f#/L	.	8dd\L	.	2.ryy	2d\	-ni	.	2f#\	-ni	2.ryy	2.ryy	2.ryy	2.ryy	2.r	2F#/	.	2d\	.	2D\	.	2D\	.	.	.	4a\	.	2dd\	.	2ff#\	.	2.ryy	4aa\	.
.	.	.	.	8d/	.	8a\	.	.	.	.	.	.	.	.	.	.	.	.	.	.	.	.	.	.	.	.	.	.	.	.	.	.	.	.	.	.	.
4D\	.	4d\	.	8f#/	.	8dd\	.	.	.	.	.	.	.	.	.	.	.	.	.	.	.	.	.	.	.	.	.	.	4f#\	.	.	.	.	.	.	4ff#\	.
.	.	.	.	8d/J	.	8a\J	.	.	.	.	.	.	.	.	.	.	.	.	.	.	.	.	.	.	.	.	.	.	.	.	.	.	.	.	.	.	.
*	*	*	*	*Xtremolo	*	*Xtremolo	*	*	*	*	*	*	*	*	*	*	*	*	*	*	*	*	*	*	*	*	*	*	*	*	*	*	*	*	*	*	*
!	!	!	!	!LO:LB:g=original	!	!	!	!	!LO:LB:g=original	!	!	!	!	!	!	!	!	!	!	!	!	!	!	!	!	!	!	!	!	!	!	!	!	!	!	!	!
4D\	.	4d\	.	8a\L	.	8ff#\L	.	.	8f#\	Be-	.	8a\	Be-	.	.	.	.	.	4r	.	4r	.	4r	.	4r	.	.	.	4d/	.	4r	.	4r	.	.	4dd\)	.
.	.	.	.	8a\J	.	8ff#\J	.	.	8f#\	-ne-	.	8a\	-ne-	.	.	.	.	.	.	.	.	.	.	.	.	.	.	.	.	.	.	.	.	.	.	.	.
=55	=55	=55	=55	=55	=55	=55	=55	=55	=55	=55	=55	=55	=55	=55	=55	=55	=55	=55	=55	=55	=55	=55	=55	=55	=55	=55	=55	=55	=55	=55	=55	=55	=55	=55	=55	=55	=55
!	!	!	!	!	!	!	!	!	!	!	!	!LO:LB:g=original	!	!	!	!	!	!	!	!	!	!	!	!	!	!	!	!	!	!	!	!	!	!	!	!	!
!	!	!	!	!	!	!	!	!	!	!	!	!	!	!	!	!	!	!	!LO:TX:a:i:t=2	!	!LO:TX:a:i:t=2	!	!LO:TX:a:i:t=4.	!	!LO:TX:a:i:t=4.	!	!	!	!	!	!LO:TX:a:i:t=4	!	!LO:TX:a:i:t=4	!	!	!	!
*	*	*rep	*	*	*	*	*	*	*	*	*	*	*	*	*	*	*	*	*	*	*	*	*	*	*	*	*	*	*	*	*	*	*	*	*	*	*
!	!	!	!	!	!	!	!	!	!	!	!	!	!	!	!	!	!	!	!LO:N:vis=0	!	!LO:N:vis=0	!	!LO:N:vis=00	!	!LO:N:vis=00	!	!	!	!	!	!LO:N:vis=00	!	!LO:N:vis=00	!	!	!	!
4D\	.	4d\	.	8a\L	.	8ff#\L	.	2.ryy	8f#\L	-di-	.	8a\L	-di-	2.ryy	2.ryy	2.ryy	2.ryy	2.r	1.r	.	1.r	.	0.r	.	0.r	.	.	.	4d/	.	0.r	.	0.r	.	2.ryy	4dd\	.
.	.	.	.	8b\	.	8gg\J	.	.	8g\J	.	.	8b\J	.	.	.	.	.	.	.	.	.	.	.	.	.	.	.	.	.	.	.	.	.	.	.	.	.
4D\	.	4d\	.	8g\	.	8ee\L	.	.	4e\	-ctus	.	4g\	-ctus	.	.	.	.	.	.	.	.	.	.	.	.	.	.	.	4r	.	.	.	.	.	.	4r	.
.	.	.	.	8e\	.	8cc#\J	.	.	.	.	.	.	.	.	.	.	.	.	.	.	.	.	.	.	.	.	.	.	.	.	.	.	.	.	.	.	.
*	*	*	*	*	*	*	*	*	*	*ij	*	*	*	*	*	*	*	*	*	*	*	*	*	*	*	*	*	*	*	*	*	*	*	*	*	*	*
4D\	.	4d\	.	8g\	.	8ee'\L	.	.	8e\	Be-	.	8g\	Be-	.	.	.	.	.	.	.	.	.	.	.	.	.	.	.	4r	.	.	.	.	.	.	4r	.
.	.	.	.	8g\J	.	8ee'\J	.	.	8e\	-ne	.	8g\	-ne-	.	.	.	.	.	.	.	.	.	.	.	.	.	.	.	.	.	.	.	.	.	.	.	.
*	*	*Xrep	*	*	*	*	*	*	*	*	*	*	*	*	*	*	*	*	*	*	*	*	*	*	*	*	*	*	*	*	*	*	*	*	*	*	*
=56	=56	=56	=56	=56	=56	=56	=56	=56	=56	=56	=56	=56	=56	=56	=56	=56	=56	=56	=56	=56	=56	=56	=56	=56	=56	=56	=56	=56	=56	=56	=56	=56	=56	=56	=56	=56	=56
!	!	!	!	!	!	!	!	!	!	!	!	!	!	!	!	!	!	!	!	!	!	!	!	!	!	!	!	!	!LO:TX:a:i:t=1	!	!	!	!	!	!	!LO:TX:a:i:t=1	!
4D\	.	4d\	.	8g/L	.	8ee\L	.	2.ryy	8e\L	di-	.	8g\L	-di-	2.ryy	2.ryy	2.ryy	2.ryy	2.r	.	.	.	.	.	.	.	.	0.r	.	2.r	.	.	.	.	.	2.ryy	2.r	.
.	.	.	.	8a/	.	8ff#\J	.	.	8f#\J	.	.	8a\J	.	.	.	.	.	.	.	.	.	.	.	.	.	.	.	.	.	.	.	.	.	.	.	.	.
4D\	.	4d\	.	8f#/	.	8dd\L	.	.	4d\	-ctus	.	4f#\	-ctus	.	.	.	.	.	.	.	.	.	.	.	.	.	.	.	.	.	.	.	.	.	.	.	.
*	*	*	*	*	*	*	*	*	*	*Xij	*	*	*	*	*	*	*	*	*	*	*	*	*	*	*	*	*	*	*	*	*	*	*	*	*	*	*
.	.	.	.	8d/	.	8a\J	.	.	.	.	.	.	.	.	.	.	.	.	.	.	.	.	.	.	.	.	.	.	.	.	.	.	.	.	.	.	.
8F#\L	.	8f#\L	.	8f#/	.	8dd\L	.	.	8r	.	.	8r	.	.	.	.	.	.	.	.	.	.	.	.	.	.	.	.	.	.	.	.	.	.	.	.	.
8D\J	.	8d\J	.	8d/J	.	8a\J	.	.	8d\	qui	.	8f#\	qui	.	.	.	.	.	.	.	.	.	.	.	.	.	.	.	.	.	.	.	.	.	.	.	.
=57	=57	=57	=57	=57	=57	=57	=57	=57	=57	=57	=57	=57	=57	=57	=57	=57	=57	=57	=57	=57	=57	=57	=57	=57	=57	=57	=57	=57	=57	=57	=57	=57	=57	=57	=57	=57	=57
!LO:PB:g=original	!	!LO:LB:g=original	!	!	!	!	!	!	!	!	!	!	!	!	!	!	!	!	!	!	!	!	!	!	!	!	!	!	!	!	!	!	!	!	!	!	!
2.AA/	.	2.A/	.	8e/L	.	8cc#\L	.	2.ryy	(4.c#\	ve-	.	(4.e\	ve-	2.ryy	2.ryy	2.ryy	2.ryy	2.r	4A/	.	4e\	.	.	.	.	.	.	.	4cc#\	.	.	.	.	.	2.ryy	4ee\	.
.	.	.	.	8A/	.	8a\	.	.	.	.	.	.	.	.	.	.	.	.	.	.	.	.	.	.	.	.	.	.	.	.	.	.	.	.	.	.	.
.	.	.	.	8e/	.	8cc#\	.	.	.	.	.	.	.	.	.	.	.	.	4r	.	4r	.	.	.	.	.	.	.	4r	.	.	.	.	.	.	4r	.
.	.	.	.	8f#/	.	8dd\	.	.	8d\	.	.	8f#\	.	.	.	.	.	.	.	.	.	.	.	.	.	.	.	.	.	.	.	.	.	.	.	.	.
.	.	.	.	8g/	.	8ee\	.	.	8e\)	-nit	.	8g\)	-nit	.	.	.	.	.	4r	.	4r	.	.	.	.	.	.	.	4r	.	.	.	.	.	.	4r	.
.	.	.	.	8a/J	.	8ff#\J	.	.	8f#\	in	.	8a\	in	.	.	.	.	.	.	.	.	.	.	.	.	.	.	.	.	.	.	.	.	.	.	.	.
=58	=58	=58	=58	=58	=58	=58	=58	=58	=58	=58	=58	=58	=58	=58	=58	=58	=58	=58	=58	=58	=58	=58	=58	=58	=58	=58	=58	=58	=58	=58	=58	=58	=58	=58	=58	=58	=58
!	!	!	!	!	!	!	!	!	!	!	!	!	!	!	!	!	!	!	!	!	!LO:LB:g=original	!	!	!	!	!	!	!	!	!	!	!	!	!	!	!	!
!	!	!	!	!	!	!	!	!	!	!	!	!	!	!	!	!	!	!	!	!	!	!	!	!	!	!	!	!	!	!	!	!	!	!	!	!LO:N:vis=8	!
4D\	.	4d\	.	8f#/L	.	8ee\L	.	2.ryy	4.d\	no-	.	(4.f#\	no-	2.ryy	2.ryy	2.ryy	2.ryy	2.r	4F#/	.	4d\	.	.	.	.	.	.	.	4dd\	.	.	.	.	.	2.ryy	4ff#\	.
.	.	.	.	8d/J	.	(8a\	.	.	.	.	.	.	.	.	.	.	.	.	.	.	.	.	.	.	.	.	.	.	.	.	.	.	.	.	.	.	.
4.D\	.	4.d\	.	8f#/L	.	8dd\	.	.	.	.	.	.	.	.	.	.	.	.	4r	.	4r	.	.	.	.	.	.	.	4r	.	.	.	.	.	.	4r	.
.	.	.	.	8g/	.	8ee\	.	.	8e\	.	.	8g\	.	.	.	.	.	.	.	.	.	.	.	.	.	.	.	.	.	.	.	.	.	.	.	.	.
.	.	.	.	8a/	.	8ff#\	.	.	8f#\	-mi-	.	8a\)	-mi-	.	.	.	.	.	4r	.	4r	.	.	.	.	.	.	.	4r	.	.	.	.	.	.	4r	.
8GG/	.	8G/	.	8b/J	.	8gg\J)	.	.	8g\	-ne	.	8b\	-ne	.	.	.	.	.	.	.	.	.	.	.	.	.	.	.	.	.	.	.	.	.	.	.	.
=59	=59	=59	=59	=59	=59	=59	=59	=59	=59	=59	=59	=59	=59	=59	=59	=59	=59	=59	=59	=59	=59	=59	=59	=59	=59	=59	=59	=59	=59	=59	=59	=59	=59	=59	=59	=59	=59
!	!	!	!	!	!	!	!	!	!	!	!	!	!	!	!	!	!	!	!LO:LB:g=original	!	!	!	!	!	!	!	!	!	!	!	!	!	!LO:PB:g=original	!	!	!LO:LB:g=original	!
4AA/	.	4A/	.	8r	.	8r	.	2.ryy	2f#\	Do-	.	2a\	Do-	2.ryy	2.ryy	2.ryy	2.ryy	2.r	4r	.	4r	.	4r	.	4r	.	.	.	4r	.	4r	.	4r	.	2.ryy	4r	.
.	.	.	.	8a\L	.	8ff#\L	.	.	.	.	.	.	.	.	.	.	.	.	.	.	.	.	.	.	.	.	.	.	.	.	.	.	.	.	.	.	.
4AA/	.	4A/	.	8a\	.	8ff#\	.	.	.	.	.	.	.	.	.	.	.	.	4d\	.	4f#\	.	4AA/	.	4AA/	.	.	.	4r	.	4dd\	.	4ff#\	.	.	4r	.
.	.	.	.	8a\	.	8ff#\	.	.	.	.	.	.	.	.	.	.	.	.	.	.	.	.	.	.	.	.	.	.	.	.	.	.	.	.	.	.	.
4AA/	.	4A/	.	8cc#\	.	8gg\	.	.	8e\L	-mi-	.	8g\L	-mi-	.	.	.	.	.	8A/L	.	8e\L	.	4AA/	.	4AA/	.	.	.	4a\	.	(8cc#\L	.	8ee\L	.	.	4aa\	.
.	.	.	.	8dd\J	.	8ff#\J	.	.	8f#\J	.	.	8a\J	.	.	.	.	.	.	8F#/J	.	8d\J	.	.	.	.	.	.	.	.	.	8dd\J)	.	8ff#\J	.	.	.	.
=60	=60	=60	=60	=60	=60	=60	=60	=60	=60	=60	=60	=60	=60	=60	=60	=60	=60	=60	=60	=60	=60	=60	=60	=60	=60	=60	=60	=60	=60	=60	=60	=60	=60	=60	=60	=60	=60
!	!	!	!	!LO:PB:g=original	!	!LO:LB:g=original	!	!	!LO:LB:g=original	!	!	!LO:LB:g=original	!	!	!	!	!	!	!	!	!	!	!	!	!LO:LB:g=original	!	!	!	!	!	!	!	!	!	!	!	!
*	*	*	*	*tremolo	*	*tremolo	*	*	*	*	*	*	*	*	*	*	*	*	*	*	*	*	*	*	*	*	*	*	*	*	*	*	*	*	*	*	*
!	!	!	!	!	!	!	!	!	!	!	!	!	!	!	!	!	!	!	!	!	!	!	!	!	!	!	!LO:N:vis=0	!	!	!	!	!	!	!	!	!	!
4D\	.	4d\	.	8dd\L	.	8ff#\L	.	2.ryy	2d\	-ni	.	2f#\	-ni	2.ryy	2.ryy	2.ryy	2.ryy	2.r	2F#/	.	2d\	.	2D\	.	2D\	.	1.r	.	4a\	.	2dd\	.	2ff#\	.	2.ryy	(4aa\	.
.	.	.	.	8a\	.	8dd\	.	.	.	.	.	.	.	.	.	.	.	.	.	.	.	.	.	.	.	.	.	.	.	.	.	.	.	.	.	.	.
4D\	.	4d\	.	8dd\	.	8ff#\	.	.	.	.	.	.	.	.	.	.	.	.	.	.	.	.	.	.	.	.	.	.	4f#\	.	.	.	.	.	.	4ff#\	.
.	.	.	.	8a\J	.	8dd\J	.	.	.	.	.	.	.	.	.	.	.	.	.	.	.	.	.	.	.	.	.	.	.	.	.	.	.	.	.	.	.
*	*	*	*	*Xtremolo	*	*Xtremolo	*	*	*	*	*	*	*	*	*	*	*	*	*	*	*	*	*	*	*	*	*	*	*	*	*	*	*	*	*	*	*
4D\	.	4d\	.	8a\L	.	8ff#\L	.	.	8f#\	Be-	.	8a\	Be-	.	.	.	.	.	4r	.	4r	.	4r	.	4r	.	.	.	4d/	.	4r	.	4r	.	.	4dd\)	.
.	.	.	.	8a\J	.	8ff#\J	.	.	8f#\	-ne-	.	8a\	-ne-	.	.	.	.	.	.	.	.	.	.	.	.	.	.	.	.	.	.	.	.	.	.	.	.
=61	=61	=61	=61	=61	=61	=61	=61	=61	=61	=61	=61	=61	=61	=61	=61	=61	=61	=61	=61	=61	=61	=61	=61	=61	=61	=61	=61	=61	=61	=61	=61	=61	=61	=61	=61	=61	=61
!	!	!	!	!	!	!	!	!	!	!	!	!	!	!	!	!	!	!	!	!	!	!	!	!	!	!	!	!	!LO:LB:g=original	!	!	!	!	!	!	!	!
!	!	!	!	!	!	!	!	!	!	!	!	!	!	!	!	!	!	!	!	!	!LO:SIC:o=:v:niejednoznaczny zapis ligatury	!	!LO:TX:a:i:t=2.	!	!LO:TX:a:i:t=2.	!	!	!	!	!	!LO:TX:a:i:t=2	!	!LO:TX:a:i:t=2	!	!	!	!
*	*	*rep	*	*	*	*	*	*	*	*	*	*	*	*	*	*	*	*	*	*	*	*	*	*	*	*	*	*	*	*	*	*	*	*	*	*	*
!	!	!	!	!	!	!	!	!	!	!	!	!	!	!	!	!	!	!	!	!	!	!	!LO:N:vis=0	!	!LO:N:vis=0	!	!	!	!	!	!LO:N:vis=0	!	!LO:N:vis=0	!	!	!	!
4D\	.	4d\	.	8dd\L	.	(8ff#\L	.	2.ryy	8f#\L	-di-	.	8a\L	-di-	2.ryy	2.ryy	2.ryy	2.ryy	2.r	[>2.D/	.	[2.d\	.	1.r	.	1.r	.	.	.	4e/	.	1.r	.	1.r	.	2.ryy	4dd\	.
.	.	.	.	16ee\L	.	16gg\L	.	.	16g\L	.	.	16b\L	.	.	.	.	.	.	.	.	.	.	.	.	.	.	.	.	.	.	.	.	.	.	.	.	.
.	.	.	.	16dd\JJ	.	16ff#\JJ)	.	.	16f#\JJ	.	.	16a\JJ	.	.	.	.	.	.	.	.	.	.	.	.	.	.	.	.	.	.	.	.	.	.	.	.	.
4D\	.	4d\	.	8g\L	.	8ee\L	.	.	4e\	-ctus	.	4g\	-ctus	.	.	.	.	.	.	.	.	.	.	.	.	.	.	.	4r	.	.	.	.	.	.	4r	.
.	.	.	.	8e\J	.	8cc#\J	.	.	.	.	.	.	.	.	.	.	.	.	.	.	.	.	.	.	.	.	.	.	.	.	.	.	.	.	.	.	.
!	!	!	!	!	!	!LO:SIC:o:s=:v:niejednoznaczny zapis artykulacji	!	!	!	!	!	!	!	!	!	!	!	!	!	!	!	!	!	!	!	!	!	!	!	!	!	!	!	!	!	!LO:N:vis=2	!
*	*	*	*	*	*	*	*	*	*	*ij	*	*	*ij	*	*	*	*	*	*	*	*	*	*	*	*	*	*	*	*	*	*	*	*	*	*	*	*
4D\	.	4d\	.	8g\L	.	8ee`\L	.	.	8e\	Be-	.	8g\	Be-	.	.	.	.	.	.	.	.	.	.	.	.	.	.	.	4r	.	.	.	.	.	.	4r	.
.	.	.	.	8g\J	.	8ee`\J	.	.	8e\	-ne-	.	8g\	-ne-	.	.	.	.	.	.	.	.	.	.	.	.	.	.	.	.	.	.	.	.	.	.	.	.
*	*	*Xrep	*	*	*	*	*	*	*	*	*	*	*	*	*	*	*	*	*	*	*	*	*	*	*	*	*	*	*	*	*	*	*	*	*	*	*
=62	=62	=62	=62	=62	=62	=62	=62	=62	=62	=62	=62	=62	=62	=62	=62	=62	=62	=62	=62	=62	=62	=62	=62	=62	=62	=62	=62	=62	=62	=62	=62	=62	=62	=62	=62	=62	=62
!	!	!	!	!	!	!	!	!	!	!	!	!	!	!	!	!	!	!	!	!	!	!	!	!	!	!	!	!	!LO:TX:a:i:t=1	!	!	!	!	!	!	!LO:TX:a:i:t=1	!
4D\	.	4d\	.	8g\L	.	8ee\L	.	2.ryy	(8e\L	-di-	.	8g\L	-di-	2.ryy	2.ryy	2.ryy	2.ryy	2.r	2.D/]	.	2.d\]	.	.	.	.	.	2.r	.	2.r	.	.	.	.	.	2.ryy	2.r	.
.	.	.	.	16a\L	.	16ff#\L	.	.	16f#\L	.	.	16a\L	.	.	.	.	.	.	.	.	.	.	.	.	.	.	.	.	.	.	.	.	.	.	.	.	.
.	.	.	.	16g\JJ	.	16ee\JJ	.	.	16e\JJ)	.	.	16g\JJ	.	.	.	.	.	.	.	.	.	.	.	.	.	.	.	.	.	.	.	.	.	.	.	.	.
4D\	.	4d\	.	(8f#/L	.	8dd\L	.	.	4d\	-ctus	.	4f#\	-ctus	.	.	.	.	.	.	.	.	.	.	.	.	.	.	.	.	.	.	.	.	.	.	.	.
*	*	*	*	*	*	*	*	*	*	*Xij	*	*	*Xij	*	*	*	*	*	*	*	*	*	*	*	*	*	*	*	*	*	*	*	*	*	*	*	*
.	.	.	.	8d/J)	.	8a\J	.	.	.	.	.	.	.	.	.	.	.	.	.	.	.	.	.	.	.	.	.	.	.	.	.	.	.	.	.	.	.
8D\L	.	8d\L	.	(8f#/L	.	8dd\L	.	.	8r	.	.	8r	.	.	.	.	.	.	.	.	.	.	.	.	.	.	.	.	.	.	.	.	.	.	.	.	.
8BB\J	.	8B\J	.	8d/J)	.	8ff#\J	.	.	8d\	qui	.	8b\	qui	.	.	.	.	.	.	.	.	.	.	.	.	.	.	.	.	.	.	.	.	.	.	.	.
=63	=63	=63	=63	=63	=63	=63	=63	=63	=63	=63	=63	=63	=63	=63	=63	=63	=63	=63	=63	=63	=63	=63	=63	=63	=63	=63	=63	=63	=63	=63	=63	=63	=63	=63	=63	=63	=63
4GG/	.	4G/	.	8r	.	8r	.	2.ryy	(4.d\	ve-	.	4.b\	ve-	2.ryy	2.ryy	2.ryy	2.ryy	2.r	4D/	.	4d\	.	4r	.	4r	.	4r	.	4r	.	4r	.	4r	.	2.ryy	4r	.
.	.	.	.	8dd\	.	8bb\L	.	.	.	.	.	.	.	.	.	.	.	.	.	.	.	.	.	.	.	.	.	.	.	.	.	.	.	.	.	.	.
!	!	!	!	!	!	!	!	!	!	!	!	!	!	!	!	!	!	!	!	!	!	!	!	!	!	!	!	!	!	!	!	!	!LO:SIC:o:s=:v:brak pauzy ćwierćnutowej	!	!	!	!
4GG/	.	4G/	.	8dd\L	.	8bb\	.	.	.	.	.	.	.	.	.	.	.	.	4r	.	4r	.	4r	.	4r	.	4r	.	4r	.	4r	.	4ryy	.	.	4r	.
.	.	.	.	8cc#\	.	8aa\	.	.	8c#\)	.	.	8a\	-nit	.	.	.	.	.	.	.	.	.	.	.	.	.	.	.	.	.	.	.	.	.	.	.	.
4GG/	.	4G/	.	8b\	.	8gg\	.	.	8B\	-nit	.	8g\	.	.	.	.	.	.	4r	.	4r	.	8r	.	8r	.	8r	.	8r	.	8r	.	8r	.	.	8r	.
.	.	.	.	8g\J	.	8ee\J	.	.	8e\	in	.	8g\	in	.	.	.	.	.	.	.	.	.	8AA/	.	8AA/	.	8g\	p	8b\	.	8gg\	.	8bb\	.	.	8bb\	.
=64	=64	=64	=64	=64	=64	=64	=64	=64	=64	=64	=64	=64	=64	=64	=64	=64	=64	=64	=64	=64	=64	=64	=64	=64	=64	=64	=64	=64	=64	=64	=64	=64	=64	=64	=64	=64	=64
!LO:LB:g=original	!	!	!	!	!	!	!	!	!	!	!	!	!	!	!	!	!	!	!	!	!	!	!	!	!	!	!	!	!	!	!	!	!	!	!	!	!
4AA/	.	4A/	.	8r	.	8r	.	2.ryy	4A\	no-	.	4f#\	no-	2.ryy	2.ryy	2.ryy	2.ryy	2.r	4AA/	.	4A/	.	4AA/	.	4AA/	.	4f#/	.	4a\	.	4ff#\	.	4aa\	.	2.ryy	4aa\	.
.	.	.	.	8f#/	.	8aa\	.	.	.	.	.	.	.	.	.	.	.	.	.	.	.	.	.	.	.	.	.	.	.	.	.	.	.	.	.	.	.
4AA/	.	4A/	.	8r	.	8r	.	.	4B\	.	.	4g\	.	.	.	.	.	.	4r	.	4r	.	4r	.	4r	.	4r	.	4r	.	4r	.	4r	.	.	4r	.
.	.	.	.	8g/L	.	8bb\L	.	.	.	.	.	.	.	.	.	.	.	.	.	.	.	.	.	.	.	.	.	.	.	.	.	.	.	.	.	.	.
!	!	!	!	!	!	!	!	!	!	!	!	!	!	!	!	!	!	!	!	!	!	!	!	!	!	!	!	!	!	!	!LO:N:vis=2	!	!	!	!	!	!
4AA/	.	4A/	.	8f#/	.	8aa\	.	.	8A\	-mi-	.	8f#\	-mi-	.	.	.	.	.	4r	.	4r	.	4r	.	4r	.	4r	.	4r	.	4r	.	4r	.	.	4r	.
.	.	.	.	8e#X/J	.	8gg#X\J	.	.	8G#X\	-ne	.	8e#X\	-ne	.	.	.	.	.	.	.	.	.	.	.	.	.	.	.	.	.	.	.	.	.	.	.	.
=65	=65	=65	=65	=65	=65	=65	=65	=65	=65	=65	=65	=65	=65	=65	=65	=65	=65	=65	=65	=65	=65	=65	=65	=65	=65	=65	=65	=65	=65	=65	=65	=65	=65	=65	=65	=65	=65
!	!	!	!	!	!	!	!	!	!LO:LB:g=original	!	!	!LO:PB:g=original	!	!	!	!	!	!	!	!	!LO:LB:g=original	!	!	!	!	!	!	!	!	!	!	!	!	!	!	!	!
*	*	*rep	*	*	*	*	*	*	*	*	*	*	*	*	*	*	*	*	*	*	*	*	*	*	*	*	*	*	*	*	*	*	*	*	*	*	*
4AA/	.	4A/	.	8r	.	8r	.	2.ryy	4A\	Do-	.	(4f#\	Do-	2.ryy	2.ryy	2.ryy	2.ryy	2.r	4AA/	.	4A/	.	4AA/	.	4AA/	.	4r	.	4r	.	4r	.	4r	.	2.ryy	4r	.
.	.	.	.	8f#/	.	8aa\	.	.	.	.	.	.	.	.	.	.	.	.	.	.	.	.	.	.	.	.	.	.	.	.	.	.	.	.	.	.	.
!	!	!	!	!	!	!LO:LB:g=original	!	!	!	!	!	!	!	!	!	!	!	!	!	!	!	!	!	!	!	!	!	!	!	!	!	!	!	!	!	!	!
4AA/	.	4A/	.	8r	.	8r	.	.	4B\	.	.	4e#X\	-mi-	.	.	.	.	.	4r	.	4r	.	4r	.	4r	.	4r	.	4r	.	4r	.	4r	.	.	4r	.
.	.	.	.	8e#X/	.	8bb\	.	.	.	.	.	.	.	.	.	.	.	.	.	.	.	.	.	.	.	.	.	.	.	.	.	.	.	.	.	.	.
!	!	!	!	!LO:LB:g=original	!	!	!	!	!	!	!	!	!	!	!	!	!	!	!	!	!	!	!	!	!	!	!	!	!	!	!	!	!	!	!	!	!
4AA/	.	4A/	.	8r	.	8r	.	.	4c#\	-mi-	.	4en\)	.	.	.	.	.	.	4A/	.	4e\	.	4AA/	.	4AA/	.	4e/	.	4cc#\	.	4ee\	.	4gg\	.	.	4ccc#\	.
.	.	.	.	8en/	.	8ccc#\	.	.	.	.	.	.	.	.	.	.	.	.	.	.	.	.	.	.	.	.	.	.	.	.	.	.	.	.	.	.	.
*	*	*Xrep	*	*	*	*	*	*	*	*	*	*	*	*	*	*	*	*	*	*	*	*	*	*	*	*	*	*	*	*	*	*	*	*	*	*	*
=66	=66	=66	=66	=66	=66	=66	=66	=66	=66	=66	=66	=66	=66	=66	=66	=66	=66	=66	=66	=66	=66	=66	=66	=66	=66	=66	=66	=66	=66	=66	=66	=66	=66	=66	=66	=66	=66
!	!	!	!	!	!	!	!	!	!	!	!	!	!	!	!	!	!	!	!	!	!	!	!	!	!	!	!	!	!	!	!LO:LB:g=original	!	!	!	!	!LO:LB:g=original	!
*	*	*	*	*tremolo	*	*tremolo	*	*	*	*	*	*	*	*	*	*	*	*	*2\right	*	*	*	*4\right	*	*	*	*	*	*2\right	*	*	*	*	*	*	*2\right	*
4D\	.	4d\	.	8f#/L	.	8ddd\L	.	2.ryy	2d\	-ni	.	2d\	-ni	2.ryy	2.ryy	2.ryy	2.ryy	2.r	2.d\	.	2.f#\	.	4D\	.	4D\	.	4f#\	.	2.dd\	.	[2.dd\	.	2.ff#\	.	2.ryy	[2.ddd\	fp
.	.	.	.	8a/	.	8aa\	.	.	.	.	.	.	.	.	.	.	.	.	.	.	.	.	.	.	.	.	.	.	.	.	.	.	.	.	.	.	.
4F#\	.	4f#\	.	8f#/	.	8ddd\	.	.	.	.	.	.	.	.	.	.	.	.	.	.	.	.	4F#\	.	4F#\	.	4a\	.	.	.	.	.	.	.	.	.	.
.	.	.	.	8a/	.	8aa\	.	.	.	.	.	.	.	.	.	.	.	.	.	.	.	.	.	.	.	.	.	.	.	.	.	.	.	.	.	.	.
4D\	.	4d\	.	8f#/	.	8ddd\	.	.	[4d\	Do-	.	4f#\	Do-	.	.	.	.	.	.	.	.	.	4D\	.	4D\	.	4f#\	.	.	.	.	.	.	.	.	.	.
.	.	.	.	8a/J	.	8aa\J	.	.	.	.	.	.	.	.	.	.	.	.	.	.	.	.	.	.	.	.	.	.	.	.	.	.	.	.	.	.	.
*	*	*	*	*Xtremolo	*	*Xtremolo	*	*	*	*	*	*	*	*	*	*	*	*	*	*	*	*	*	*	*	*	*	*	*	*	*	*	*	*	*	*	*
=67	=67	=67	=67	=67	=67	=67	=67	=67	=67	=67	=67	=67	=67	=67	=67	=67	=67	=67	=67	=67	=67	=67	=67	=67	=67	=67	=67	=67	=67	=67	=67	=67	=67	=67	=67	=67	=67
!	!	!	!	!	!	!	!	!	!	!	!	!	!	!	!	!	!	!	!LO:LB:g=original	!	!	!	!	!	!	!	!	!	!	!	!	!	!	!	!	!	!
2.AA/	.	2.A/	.	8r	.	8r	.	2.ryy	4d\]	.	.	2e\	.	2.ryy	2.ryy	2.ryy	2.ryy	2.r	2d\	.	2.e\	.	4AA/	.	4AA/	.	2.e/	.	4dd\	.	4dd\]	.	2.ee\	.	2.ryy	4ddd\]	.
.	.	.	.	8a\ 8ee\	.	8ddd\	.	.	.	.	.	.	.	.	.	.	.	.	.	.	.	.	.	.	.	.	.	.	.	.	.	.	.	.	.	.	.
.	.	.	.	8r	.	8r	.	.	8c#\L	-mi-	.	.	.	.	.	.	.	.	.	.	.	.	4r	.	4r	.	.	.	8cc#\L	.	8cc#\L	.	.	.	.	8ccc#\L	.
.	.	.	.	8a\ 8ee\	.	8ddd\	.	.	8B\J	.	.	.	.	.	.	.	.	.	.	.	.	.	.	.	.	.	.	.	8b\J	.	8b\J	.	.	.	.	8bb\J	.
.	.	.	.	8r	.	8r	.	.	4c#\	.	.	4e\	-mi-	.	.	.	.	.	4A/	.	.	.	4A\	.	4A\	.	.	.	4cc#\	.	4cc#\	.	.	.	.	4ccc#\	.
.	.	.	.	8a\ 8ee\	.	8ccc#\	.	.	.	.	.	.	.	.	.	.	.	.	.	.	.	.	.	.	.	.	.	.	.	.	.	.	.	.	.	.	.
=68	=68	=68	=68	=68	=68	=68	=68	=68	=68	=68	=68	=68	=68	=68	=68	=68	=68	=68	=68	=68	=68	=68	=68	=68	=68	=68	=68	=68	=68	=68	=68	=68	=68	=68	=68	=68	=68
!	!	!	!	!	!	!	!	!	!	!	!	!	!	!	!	!	!	!	!	!	!	!	!	!	!	!	!	!	!LO:LB:g=original	!	!	!	!	!	!	!	!
!	!	!	!	!	!	!LO:SIC:s=:v:2ddd	!LO:DY:b	!	!	!	!	!	!	!	!	!	!	!	!	!	!	!	!	!	!	!	!	!	!	!	!	!	!	!	!	!	!
2D\	.	2d\	.	2a\ 2ff#\	.	2eee^\	fp	2.ryy	2d\	-ni.	.	2f#\	-ni.	2.ryy	2.ryy	2.ryy	2.ryy	2.r	2F#/	.	2d/	.	2D\	.	2D\	.	2f#/	.	2dd\	.	2dd\	.	2dd\	.	2.ryy	2ddd\	.
4r	.	4r	.	4r	.	4r	.	.	4r	.	.	4r	.	.	.	.	.	.	4r	.	4r	.	4r	.	4r	.	4r	.	4r	.	4r	.	4r	.	.	4r	.
=69	=69	=69	=69	=69	=69	=69	=69	=69	=69	=69	=69	=69	=69	=69	=69	=69	=69	=69	=69	=69	=69	=69	=69	=69	=69	=69	=69	=69	=69	=69	=69	=69	=69	=69	=69	=69	=69
!	!	!	!	!	!	!	!	!	!	!	!	!	!	!	!	!	!	!	!	!	!	!	!	!	!	!	!LO:LB:g=original	!	!	!	!	!	!LO:LB:g=original	!	!	!	!
!	!	!	!	!	!	!	!	!	!	!	!	!	!	!	!	!	!	!	!	!	!LO:TX:a:i:t=3	!	!LO:TX:a:i:t=3	!	!LO:TX:a:i:t=3	!	!LO:TX:a:i:t=3	!	!LO:TX:a:i:t=3	!	!LO:TX:a:i:t=3	!	!LO:TX:a:i:t=3	!	!	!LO:TX:a:i:t=3	!
!	!	!	!	!	!	!	!LO:DY:b:rj	!	!LO:N:vis=00	!	!	!LO:N:vis=00	!	!	!	!	!	!	!LO:N:vis=00	!	!LO:N:vis=0	!	!LO:N:vis=0	!	!LO:N:vis=0	!	!	!	!LO:N:vis=0	!	!LO:N:vis=0	!	!LO:N:vis=0	!	!	!LO:N:vis=0	!
2GG/	.	2G/	.	2g/	.	2d/ 2b/	p	2.ryy	0.r	.	.	0.r	.	2.ryy	2.ryy	2.ryy	2.ryy	2.r	0.r	.	1.r	.	1.r	.	1.r	.	2.r	.	1.r	.	1.r	.	1.r	.	2.ryy	1.r	.
4r	.	4r	.	4r	.	4r	.	.	.	.	.	.	.	.	.	.	.	.	.	.	.	.	.	.	.	.	.	.	.	.	.	.	.	.	.	.	.
=70	=70	=70	=70	=70	=70	=70	=70	=70	=70	=70	=70	=70	=70	=70	=70	=70	=70	=70	=70	=70	=70	=70	=70	=70	=70	=70	=70	=70	=70	=70	=70	=70	=70	=70	=70	=70	=70
[>2.AA/	.	[2.A/	.	2d/	.	2.e/	.	2.ryy	.	.	.	.	.	2.ryy	2.ryy	2.ryy	2.ryy	2.r	.	.	.	.	.	.	.	.	2.r	.	.	.	.	.	.	.	2.ryy	.	.
.	.	.	.	4c#/	.	.	.	.	.	.	.	.	.	.	.	.	.	.	.	.	.	.	.	.	.	.	.	.	.	.	.	.	.	.	.	.	.
=71	=71	=71	=71	=71	=71	=71	=71	=71	=71	=71	=71	=71	=71	=71	=71	=71	=71	=71	=71	=71	=71	=71	=71	=71	=71	=71	=71	=71	=71	=71	=71	=71	=71	=71	=71	=71	=71
!	!	!	!	!	!	!	!	!	!	!	!	!	!	!	!	!	!	!	!	!	!	!	!	!	!	!	!	!	!	!	!	!	!LO:SIC:o:s=:v:partia kończy się w t. 71	!	!	!LO:SIC:o:s=:v:partia kończy się w t. 71	!
2.AA/]	.	2.A/]	.	2d/	.	2f#/	.	2.ryy	.	.	.	.	.	2.ryy	2.ryy	2.ryy	2.ryy	2.r	.	.	2.r	.	2.r	.	2.r	.	2.r	.	2.r	.	2.r	.	2.r	.	2.ryy	2.r	.
.	.	.	.	4e/	.	4g/	.	.	.	.	.	.	.	.	.	.	.	.	.	.	.	.	.	.	.	.	.	.	.	.	.	.	.	.	.	.	.
=72	=72	=72	=72	=72	=72	=72	=72	=72	=72	=72	=72	=72	=72	=72	=72	=72	=72	=72	=72	=72	=72	=72	=72	=72	=72	=72	=72	=72	=72	=72	=72	=72	=72	=72	=72	=72	=72
!	!	!LO:LB:g=original	!	!	!	!LO:LB:g=original	!	!	!	!	!	!	!	!	!	!	!	!	!	!	!	!	!	!	!LO:LB:g=original	!	!	!	!	!	!	!	!	!	!	!	!
!LO:SIC:o=:v:niepełny takt, przedtakt w Oſanna	!	!LO:SIC:o=:v:niepełny takt, przedtakt w Oſanna	!	!	!	!	!	!	!	!	!	!	!	!	!	!	!	!LO:SIC:o=:v:niepełny takt, przedtakt w Oſanna	!	!	!LO:SIC:o=:v:niepełny takt, przedtakt w Oſanna	!	!	!	!LO:SIC:o=:v:niepełny takt, przedtakt w Oſanna	!	!LO:SIC:o=:v:niepełny takt, przedtakt w Oſanna	!	!LO:SIC:o=:v:niepełny takt, przedtakt w Oſanna	!	!LO:SIC:o=:v:niepełny takt, przedtakt w Oſanna	!	!	!	!	!	!
!LO:TX:b:i:t=Oſanna dal Segno	!	!LO:TX:b:i:t=Oſanna dal Segno	!	!LO:SIC:o=:v:niepełny takt, przedtakt w Oſanna	!	!LO:TX:b:i:t=Segue Oſanna dal Segno. Allegro.	!	!	!	!	!	!LO:TX:a:B:i:t=Segue	!	!	!	!	!	!LO:TX:b:i:t=Oſanna dal Segno.	!	!	!LO:TX:b:i:t=Oſanna dal Segno	!	!LO:SIC:o=:v:niepełny takt, przedtakt w Oſanna	!	!LO:TX:b:i:t=Oſanna dal Segno	!	!LO:TX:b:i:t=Oſanna dal Segno	!	!LO:TX:b:i:t=Oſanna dal Segno	!	!LO:TX:b:i:t=Oſanna dal Segno	!	!	!	!	!	!
2D\	.	2d\	.	2d/	.	2f#/	.	2.ryy	.	.	.	.	.	2.ryy	2.ryy	2.ryy	2.ryy	4r	.	.	4r	.	2r	.	4r	.	4r	.	4r	.	4r	.	2.ryy	.	2.ryy	2.ryy	.
!	!	!	!	!	!	!	!	!LO:TX:b:i:t=Segue Oſanna dal Segno. Allegro.	!	!	!	!LO:TX:a:i:t=Oſanna dal Segno	!	!	!LO:TX:a:i:t=Segue Oſanna dal Segno.	!	!	!	!	!	!	!	!	!	!	!	!	!	!	!	!	!	!	!	!	!	!
!	!	!	!	!	!	!	!	!LO:TX:b:i:t=Agnus Verte	!	!	!	!	!	!	!	!	!	!	!LO:TX:b:i:t=Oſanna dal Segno	!	!	!	!	!	!	!	!	!	!	!	!	!	!LO:TX:b:i:t=Oſanna dal Segno	!	!	!LO:TX:b:i:t=Oſanna dal Segno	!
.	.	.	.	.	.	.	.	.	.	.	.	.	.	.	.	.	.	4r	.	.	4r	.	.	.	4r	.	4r	.	4r	.	4r	.	.	.	.	.	.
4ryy	.	4ryy	.	4ryy	.	4ryy	.	.	.	.	.	.	.	.	.	.	.	4ryy	.	.	4ryy	.	4ryy	.	4ryy	.	4ryy	.	4ryy	.	4ryy	.	.	.	.	.	.
==	==	==	==	==	==	==	==	==	==	==	==	==	==	==	==	==	==	==	==	==	==	==	==	==	==	==	==	==	==	==	==	==	==	==	==	==	==
*-	*-	*-	*-	*-	*-	*-	*-	*-	*-	*-	*-	*-	*-	*-	*-	*-	*-	*-	*-	*-	*-	*-	*-	*-	*-	*-	*-	*-	*-	*-	*-	*-	*-	*-	*-	*-	*-
!!!system-decoration: [(s1,s2,s3,s4,s5,s6,s7,s8)][(s9,s10,s11,s12,s13)],s14,[(s15,s16,s17,s18)][(s19,s20,s21,s22)]
!!!RDF**kern: > = above
!!!RDF**kern: < = below
!!!EED: Leszek Kubiak
!!!EST: 2020-06-13
!!!ENC: Andrzej Kubiczek
!!!END: 2020-04-09
